; HEADER_BLOCK_START
; generated by OrcaSlicer 1.7.0 on 2023-12-22 at 15:00:55
; total layer number: 75
; HEADER_BLOCK_END

; THUMBNAIL_BLOCK_START
; THUMBNAIL_BLOCK_END

; external perimeters extrusion width = 0.40mm
; perimeters extrusion width = 0.40mm
; infill extrusion width = 0.50mm
; solid infill extrusion width = 0.40mm
; top infill extrusion width = 0.40mm
; first layer extrusion width = 0.50mm

; EXECUTABLE_BLOCK_START
EXCLUDE_OBJECT_DEFINE NAME=Body1_2.stl_id_0_copy_0 CENTER=175,150 POLYGON=[[165.003,150],[165.023,149.366],[165.083,148.734],[165.183,148.107],[165.323,147.489],[165.502,146.88],[165.719,146.283],[165.973,145.702],[166.264,145.138],[166.59,144.594],[166.95,144.071],[167.342,143.572],[167.765,143.099],[168.217,142.654],[168.697,142.239],[169.202,141.854],[169.73,141.503],[170.28,141.185],[170.848,140.904],[171.434,140.659],[172.033,140.451],[172.645,140.282],[173.266,140.152],[173.894,140.062],[174.527,140.011],[175.161,140.001],[175.795,140.031],[176.426,140.102],[177.051,140.212],[177.667,140.362],[178.273,140.55],[178.866,140.776],[179.443,141.04],[180.003,141.34],[180.542,141.674],[181.059,142.042],[181.551,142.443],[182.017,142.873],[182.455,143.332],[182.863,143.818],[183.239,144.329],[183.582,144.863],[183.891,145.418],[184.164,145.991],[184.399,146.58],[184.597,147.183],[184.757,147.797],[184.877,148.42],[184.957,149.049],[184.997,149.683],[184.997,150.317],[184.957,150.951],[184.877,151.58],[184.757,152.203],[184.597,152.817],[184.399,153.42],[184.164,154.009],[183.891,154.582],[183.582,155.137],[183.239,155.671],[182.863,156.182],[182.455,156.668],[182.017,157.127],[181.551,157.557],[181.059,157.958],[180.542,158.326],[180.003,158.66],[179.443,158.96],[178.866,159.224],[178.273,159.45],[177.667,159.638],[177.051,159.788],[176.426,159.898],[175.795,159.969],[175.161,159.999],[174.527,159.989],[173.894,159.938],[173.266,159.848],[172.645,159.718],[172.033,159.549],[171.434,159.341],[170.848,159.096],[170.28,158.815],[169.73,158.497],[169.202,158.146],[168.697,157.761],[168.217,157.346],[167.765,156.901],[167.342,156.428],[166.95,155.929],[166.59,155.406],[166.264,154.862],[165.973,154.298],[165.719,153.717],[165.502,153.12],[165.323,152.511],[165.183,151.893],[165.083,151.266],[165.023,150.634],[165.003,150]]
M73 P0 R10
;TYPE:Custom
PRINT_START EXTRUDER=260 BED=110
G90
G21
M83 ; use relative distances for extrusion
; Filament gcode
M106 S0
;LAYER_CHANGE
;Z:0.25
;HEIGHT:0.25
;BEFORE_LAYER_CHANGE
;0.25
G92 E0

G1 E-.8 F1800
;AFTER_LAYER_CHANGE
;0.25
;_SET_FAN_SPEED_CHANGING_LAYER
SET_VELOCITY_LIMIT ACCEL=1000 ACCEL_TO_DECEL=500
SET_VELOCITY_LIMIT SQUARE_CORNER_VELOCITY=9
G1 Z.25 F24000
G1 X164.857 Y141.342
G1 Z.25
G1 E.8 F1800
;TYPE:Skirt
;WIDTH:0.5
G1 X165.875 Y140.274 E.06341
G1 X166.679 Y139.578 E.04571
G1 X167.881 Y138.723 E.06341
G1 X169.366 Y137.912 E.07273
G1 X170.342 Y137.503 E.04548
G1 X171.755 Y137.064 E.06364
G1 X172.791 Y136.847 E.04549
G1 X174.262 Y136.683 E.06364
G1 X175.325 Y136.666 E.04571
G1 X177.005 Y136.813 E.0725
G1 X178.454 Y137.117 E.06364
G1 X179.465 Y137.431 E.04548
G1 X180.83 Y138.003 E.06364
G1 X181.763 Y138.502 E.04548
G1 X182.995 Y139.322 E.06364
G1 X183.817 Y139.99 E.04549
G1 X184.872 Y141.028 E.06364
G1 X185.552 Y141.839 E.04549
G1 X186.391 Y143.058 E.06364
G1 X187.179 Y144.556 E.07273
G1 X187.572 Y145.538 E.04549
G1 X187.989 Y146.958 E.06364
G1 X188.189 Y147.997 E.04548
G1 X188.33 Y149.471 E.06364
G1 X188.33 Y150.529 E.04549
G1 X188.189 Y152.003 E.06364
G1 X187.989 Y153.042 E.04549
G1 X187.572 Y154.462 E.06364
G1 X187.179 Y155.444 E.04549
G1 X186.5 Y156.76 E.06364
G1 X185.928 Y157.65 E.04548
G1 X185.013 Y158.814 E.06364
G1 X184.283 Y159.58 E.04549
G1 X183.164 Y160.549 E.06364
G1 X182.302 Y161.163 E.04549
G1 X181.02 Y161.903 E.06364
G1 X180.058 Y162.343 E.04549
G1 X178.659 Y162.827 E.06364
G1 X177.63 Y163.076 E.04549
G1 X176.165 Y163.287 E.06364
G1 X174.474 Y163.327 E.07273
G1 X173.419 Y163.243 E.04549
G1 X171.961 Y162.986 E.06364
G1 X170.941 Y162.704 E.04549
G1 X169.558 Y162.176 E.06364
G1 X168.606 Y161.704 E.04571
G1 X167.18 Y160.803 E.0725
G1 X166.031 Y159.869 E.06364
G1 X165.277 Y159.127 E.04549
G1 X164.325 Y157.993 E.06364
G1 X163.725 Y157.122 E.04549
G1 X163.005 Y155.828 E.06364
G1 X162.581 Y154.859 E.04549
G1 X162.119 Y153.452 E.06364
G1 X161.886 Y152.42 E.04549
G1 X161.685 Y150.74 E.07273
G1 X161.685 Y149.26 E.06364
G1 X161.786 Y148.207 E.04549
G1 X162.066 Y146.753 E.06364
G1 X162.366 Y145.733 E.04571
G1 X162.914 Y144.363 E.06341
G1 X163.399 Y143.423 E.04549
G1 X164.2 Y142.177 E.06364
G1 X164.832 Y141.373 E.04399
G1 X165.182 Y141.649 F24000
G1 F1800
G1 X165.19 Y141.639 E.00051
G1 X166.188 Y140.592 E.06219
G1 X166.949 Y139.933 E.04328
G1 X168.128 Y139.094 E.06219
G1 X169.564 Y138.312 E.0703
G1 X170.488 Y137.925 E.04305
G1 X171.874 Y137.494 E.06242
G1 X172.854 Y137.289 E.04305
G1 X174.297 Y137.128 E.06242
M73 P1 R10
G1 X175.304 Y137.112 E.04328
G1 X176.928 Y137.253 E.07007
G1 X178.349 Y137.55 E.06242
G1 X179.306 Y137.848 E.04305
G1 X180.645 Y138.409 E.06242
G1 X181.528 Y138.882 E.04305
G1 X182.737 Y139.686 E.06242
G1 X183.514 Y140.318 E.04305
G1 X184.549 Y141.336 E.06242
G1 X185.192 Y142.103 E.04305
G1 X186.016 Y143.299 E.06242
G1 X186.503 Y144.174 E.04305
G1 X187.085 Y145.505 E.06242
G1 X187.397 Y146.456 E.04305
G1 X187.717 Y147.873 E.06242
G1 X187.844 Y148.866 E.04305
G1 X187.884 Y150.501 E.0703
G1 X187.746 Y151.946 E.06242
G1 X187.557 Y152.93 E.04305
G1 X187.148 Y154.323 E.06242
G1 X186.775 Y155.253 E.04305
G1 X186.11 Y156.543 E.06242
G1 X185.569 Y157.386 E.04305
G1 X184.671 Y158.527 E.06242
G1 X183.98 Y159.252 E.04305
G1 X182.883 Y160.203 E.06242
G1 X182.067 Y160.784 E.04305
G1 X180.809 Y161.51 E.06242
G1 X179.898 Y161.926 E.04305
G1 X178.526 Y162.401 E.06242
G1 X177.553 Y162.637 E.04305
G1 X175.933 Y162.858 E.07029
G1 X174.481 Y162.881 E.06242
G1 X173.482 Y162.802 E.04305
G1 X172.052 Y162.55 E.06242
G1 X171.087 Y162.283 E.04305
G1 X169.731 Y161.764 E.06242
G1 X168.829 Y161.317 E.04328
G1 X167.45 Y160.448 E.07007
G1 X166.323 Y159.532 E.06242
G1 X165.609 Y158.83 E.04305
G1 X164.676 Y157.717 E.06242
G1 X164.108 Y156.892 E.04305
G1 X163.402 Y155.623 E.06242
G1 X163.001 Y154.706 E.04305
G1 X162.548 Y153.326 E.06242
G1 X162.327 Y152.35 E.04305
G1 X162.143 Y150.909 E.06242
G1 X162.131 Y149.274 E.0703
G1 X162.227 Y148.277 E.04305
G1 X162.501 Y146.851 E.06242
G1 X162.785 Y145.885 E.04328
G1 X163.323 Y144.542 E.06219
G1 X163.782 Y143.652 E.04305
G1 X164.567 Y142.431 E.06242
G1 X165.158 Y141.68 E.04105
G1 X165.508 Y141.956 F24000
G1 F1800
G1 X165.522 Y141.937 E.00102
G1 X166.501 Y140.911 E.06097
G1 X167.22 Y140.289 E.04084
G1 X168.375 Y139.466 E.06097
G1 X169.762 Y138.712 E.06786
G1 X170.634 Y138.347 E.04062
G1 X171.993 Y137.924 E.0612
G1 X172.918 Y137.73 E.04062
G1 X174.333 Y137.573 E.0612
G1 X175.283 Y137.558 E.04084
G1 X176.85 Y137.693 E.06764
G1 X178.244 Y137.984 E.0612
G1 X179.146 Y138.265 E.04062
G1 X180.459 Y138.815 E.0612
G1 X181.292 Y139.261 E.04062
G1 X182.478 Y140.05 E.0612
G1 X183.211 Y140.645 E.04062
G1 X184.226 Y141.644 E.0612
G1 X184.833 Y142.368 E.04062
G1 X185.64 Y143.541 E.0612
G1 X186.1 Y144.366 E.04062
G1 X186.671 Y145.671 E.0612
G1 X187.125 Y147.182 E.06786
G1 X187.304 Y148.11 E.04062
G1 X187.439 Y149.528 E.0612
G1 X187.439 Y150.472 E.04062
G1 X187.304 Y151.89 E.0612
G1 X187.125 Y152.818 E.04062
G1 X186.724 Y154.184 E.0612
G1 X186.372 Y155.061 E.04062
G1 X185.72 Y156.326 E.0612
G1 X185.209 Y157.121 E.04062
G1 X184.329 Y158.24 E.0612
G1 X183.677 Y158.924 E.04062
G1 X182.601 Y159.856 E.0612
M73 P2 R10
G1 X181.832 Y160.404 E.04062
G1 X180.599 Y161.116 E.0612
G1 X179.739 Y161.509 E.04062
G1 X178.394 Y161.974 E.0612
G1 X177.475 Y162.197 E.04062
G1 X175.912 Y162.412 E.06786
G1 X174.488 Y162.435 E.06121
G1 X173.546 Y162.36 E.04062
G1 X172.144 Y162.113 E.0612
G1 X171.233 Y161.861 E.04062
G1 X169.903 Y161.353 E.0612
G1 X169.052 Y160.93 E.04085
G1 X167.847 Y160.183 E.06097
G1 X166.615 Y159.195 E.06786
G1 X165.942 Y158.532 E.04062
G1 X165.027 Y157.441 E.0612
G1 X164.491 Y156.663 E.04062
G1 X163.799 Y155.419 E.0612
G1 X163.42 Y154.553 E.04062
G1 X162.976 Y153.201 E.0612
G1 X162.768 Y152.279 E.04062
G1 X162.578 Y150.712 E.06786
G1 X162.578 Y149.288 E.0612
G1 X162.667 Y148.348 E.04062
G1 X162.937 Y146.95 E.0612
G1 X163.205 Y146.038 E.04084
G1 X163.732 Y144.721 E.06097
G1 X164.165 Y143.881 E.04062
G1 X164.935 Y142.684 E.0612
G1 X165.483 Y141.987 E.03811
; printing object Body1 2.stl id:0 copy 0
G1 E-.8
EXCLUDE_OBJECT_START NAME=Body1_2.stl_id_0_copy_0
G1 Z.45 F24000
G1 X172.079 Y159.286 Z.45
G1 Z.25
G1 E.8 F1800
;TYPE:Outer wall
;WIDTH:0.526669
G1 X171.482 Y159.077 E.02881
;WIDTH:0.526203
G1 X170.885 Y158.821 E.02958
;WIDTH:0.525768
G1 X170.306 Y158.526 E.02954
;WIDTH:0.525433
G1 X169.774 Y158.211 E.02809
;WIDTH:0.528507
G1 X169.349 Y157.926 E.0234
;WIDTH:0.52864
G1 X168.854 Y157.548 E.0285
;WIDTH:0.529061
G1 X168.392 Y157.146 E.02805
;WIDTH:0.529179
G1 X167.952 Y156.713 E.02829
G1 X167.54 Y156.252 E.02829
;WIDTH:0.529373
G1 X167.159 Y155.766 E.0283
G1 X166.809 Y155.257 E.0283
;WIDTH:0.529114
G1 X166.492 Y154.727 E.02829
G1 X166.209 Y154.177 E.02829
;WIDTH:0.528981
G1 X165.96 Y153.606 E.02852
;WIDTH:0.528752
G1 X165.751 Y153.031 E.02803
;WIDTH:0.528537
G1 X165.577 Y152.438 E.02825
G1 X165.441 Y151.835 E.02825
;WIDTH:0.527924
G1 X165.344 Y151.225 E.02822
;WIDTH:0.527517
G1 X165.285 Y150.605 E.02843
;WIDTH:0.527063
G1 X165.266 Y150 E.02759
;WIDTH:0.526691
G1 X165.267 Y149.977 E.00106
;WIDTH:0.526573
G1 X165.291 Y149.327 E.0296
;WIDTH:0.526116
G1 X165.358 Y148.681 E.02957
;WIDTH:0.525714
G1 X165.468 Y148.041 E.02954
;WIDTH:0.52537
G1 X165.611 Y147.439 E.02809
;WIDTH:0.528437
G1 X165.757 Y146.95 E.02334
;WIDTH:0.528799
G1 X165.967 Y146.375 E.02803
;WIDTH:0.529015
G1 X166.216 Y145.809 E.02828
G1 X166.502 Y145.256 E.02852
;WIDTH:0.529287
G1 X166.817 Y144.731 E.02806
G1 X167.168 Y144.222 E.0283
G1 X167.553 Y143.733 E.02853
G1 X167.962 Y143.277 E.02806
;WIDTH:0.52909
G1 X168.403 Y142.844 E.02829
;WIDTH:0.528947
G1 X168.874 Y142.436 E.02851
;WIDTH:0.528711
G1 X169.362 Y142.065 E.02803
;WIDTH:0.528509
G1 X169.876 Y141.724 E.02825
;WIDTH:0.528136
G1 X170.411 Y141.415 E.02823
G1 X170.965 Y141.141 E.02823
;WIDTH:0.527436
G1 X171.535 Y140.902 E.02819
;WIDTH:0.52697
G1 X172.13 Y140.698 E.02869
;WIDTH:0.526801
G1 X172.767 Y140.525 E.03009
;WIDTH:0.526034
G1 X173.405 Y140.398 E.02956
;WIDTH:0.525575
G1 X174.038 Y140.314 E.02905
G1 X174.665 Y140.272 E.02856
;WIDTH:0.528488
G1 X175.17 Y140.266 E.02307
;WIDTH:0.528839
G1 X175.782 Y140.296 E.02804
;WIDTH:0.529198
G1 X176.395 Y140.365 E.02829
G1 X177.004 Y140.473 E.02829
G1 X177.604 Y140.619 E.02829
;WIDTH:0.529378
G1 X178.194 Y140.803 E.0283
G1 X178.771 Y141.024 E.0283
;WIDTH:0.529067
G1 X179.332 Y141.281 E.02828
G1 X179.877 Y141.573 E.02828
;WIDTH:0.52895
G1 X180.401 Y141.899 E.02828
G1 X180.904 Y142.257 E.02828
;WIDTH:0.52845
G1 X181.384 Y142.647 E.02825
;WIDTH:0.528136
G1 X181.837 Y143.067 E.02823
;WIDTH:0.527768
G1 X182.263 Y143.514 E.02821
;WIDTH:0.527342
G1 X182.663 Y143.992 E.02842
;WIDTH:0.526868
G1 X183.042 Y144.509 E.02922
;WIDTH:0.526382
G1 X183.39 Y145.058 E.02959
;WIDTH:0.52593
G1 X183.7 Y145.629 E.02955
;WIDTH:0.52557
G1 X183.96 Y146.19 E.0281
;WIDTH:0.52839
G1 X184.153 Y146.677 E.02398
;WIDTH:0.528661
G1 X184.346 Y147.264 E.02826
;WIDTH:0.52888
G1 X184.5 Y147.863 E.02827
;WIDTH:0.529039
G1 X184.617 Y148.469 E.02828
;WIDTH:0.529149
G1 X184.695 Y149.087 E.02853
G1 X184.733 Y149.699 E.02805
G1 X184.732 Y150.316 E.02829
G1 X184.693 Y150.933 E.02829
G1 X184.614 Y151.546 E.02829
;WIDTH:0.529038
G1 X184.496 Y152.157 E.02852
;WIDTH:0.528827
G1 X184.341 Y152.75 E.02803
;WIDTH:0.528661
G1 X184.148 Y153.337 E.02826
;WIDTH:0.528391
G1 X183.918 Y153.91 E.02825
;WIDTH:0.528064
G1 X183.653 Y154.468 E.02823
;WIDTH:0.527684
G1 X183.349 Y155.012 E.02844
;WIDTH:0.527248
G1 X183.016 Y155.53 E.02808
;WIDTH:0.526769
G1 X182.635 Y156.043 E.02913
;WIDTH:0.526606
M73 P3 R10
G1 X182.208 Y156.546 E.03008
;WIDTH:0.525868
G1 X181.755 Y157.012 E.02955
;WIDTH:0.5255
G1 X181.284 Y157.436 E.02877
;WIDTH:0.528523
G1 X180.892 Y157.752 E.02301
;WIDTH:0.528711
G1 X180.389 Y158.109 E.02826
;WIDTH:0.528914
G1 X179.864 Y158.435 E.02828
;WIDTH:0.529133
G1 X179.319 Y158.726 E.02829
G1 X178.757 Y158.982 E.02829
G1 X178.179 Y159.202 E.02829
G1 X177.584 Y159.386 E.02852
G1 X176.989 Y159.53 E.02805
G1 X176.38 Y159.637 E.02829
;WIDTH:0.529013
G1 X175.767 Y159.705 E.02828
;WIDTH:0.52884
G1 X175.149 Y159.734 E.02827
;WIDTH:0.528612
G1 X174.532 Y159.724 E.02826
;WIDTH:0.528276
G1 X173.916 Y159.675 E.02824
G1 X173.305 Y159.587 E.02824
;WIDTH:0.527607
G1 X172.7 Y159.46 E.0282
;WIDTH:0.527163
G1 X172.117 Y159.298 E.02758
G1 E-.8
G1 Z.45 F24000
G1 X183.705 Y146.833 Z.45
G1 Z.25
G1 E.8 F1800
;WIDTH:0.52839
G1 X183.706 Y146.837 E.00016
;WIDTH:0.528661
G1 X183.889 Y147.395 E.02685
;WIDTH:0.52888
G1 X184.036 Y147.963 E.02686
;WIDTH:0.529039
G1 X184.146 Y148.539 E.02686
G1 X184.221 Y149.126 E.02711
;WIDTH:0.529204
G1 X184.257 Y149.707 E.02664
G1 X184.257 Y150.293 E.02687
G1 X184.22 Y150.879 E.02687
G1 X184.146 Y151.461 E.02687
;WIDTH:0.529038
G1 X184.034 Y152.042 E.02711
;WIDTH:0.528827
G1 X183.889 Y152.605 E.02662
;WIDTH:0.528661
G1 X183.706 Y153.163 E.02685
;WIDTH:0.528391
G1 X183.489 Y153.708 E.02683
;WIDTH:0.528064
G1 X183.273 Y154.171 E.0233
;WIDTH:0.525803
G1 X182.976 Y154.714 E.02815
;WIDTH:0.526384
G1 X182.644 Y155.236 E.02818
;WIDTH:0.526868
G1 X182.283 Y155.727 E.02776
;WIDTH:0.527363
G1 X181.901 Y156.181 E.02709
;WIDTH:0.527767
G1 X181.495 Y156.605 E.02679
;WIDTH:0.528135
G1 X181.064 Y157.002 E.02682
;WIDTH:0.528523
G1 X180.607 Y157.372 E.02685
;WIDTH:0.528711
G1 X180.129 Y157.712 E.02684
;WIDTH:0.528914
G1 X179.63 Y158.021 E.02686
;WIDTH:0.529067
G1 X179.113 Y158.298 E.02687
G1 X178.579 Y158.541 E.02687
;WIDTH:0.529204
G1 X178.031 Y158.75 E.02687
G1 X177.466 Y158.926 E.02712
G1 X176.9 Y159.063 E.02664
G1 X176.322 Y159.165 E.02687
;WIDTH:0.529013
G1 X175.739 Y159.231 E.02686
;WIDTH:0.52884
G1 X175.153 Y159.259 E.02686
;WIDTH:0.528612
G1 X174.566 Y159.251 E.02684
;WIDTH:0.52833
G1 X173.981 Y159.205 E.02684
G1 X173.47 Y159.135 E.02359
;WIDTH:0.526034
G1 X172.863 Y159.012 E.02817
;WIDTH:0.526478
G1 X172.266 Y158.85 E.02819
;WIDTH:0.52697
G1 X171.69 Y158.65 E.02777
;WIDTH:0.527435
G1 X171.149 Y158.423 E.02678
;WIDTH:0.527703
G1 X170.619 Y158.159 E.02704
;WIDTH:0.528204
G1 X170.116 Y157.867 E.02659
;WIDTH:0.528507
G1 X169.628 Y157.541 E.02683
;WIDTH:0.52864
G1 X169.157 Y157.182 E.02709
;WIDTH:0.529061
G1 X168.718 Y156.8 E.02664
G1 X168.3 Y156.389 E.02686
;WIDTH:0.529179
G1 X167.909 Y155.951 E.02687
;WIDTH:0.529373
G1 X167.546 Y155.49 E.02689
G1 X167.213 Y155.007 E.02687
;WIDTH:0.52919
G1 X166.912 Y154.503 E.02687
G1 X166.643 Y153.982 E.02687
;WIDTH:0.528981
G1 X166.405 Y153.44 E.0271
;WIDTH:0.528752
G1 X166.206 Y152.893 E.02661
;WIDTH:0.528562
G1 X166.04 Y152.33 E.02685
G1 X165.924 Y151.837 E.02316
;WIDTH:0.525716
G1 X165.823 Y151.242 E.02743
;WIDTH:0.525967
G1 X165.761 Y150.627 E.02816
;WIDTH:0.526574
G1 X165.739 Y150.008 E.02821
;WIDTH:0.527068
G1 X165.759 Y149.405 E.02747
;WIDTH:0.527521
G1 X165.816 Y148.821 E.02679
;WIDTH:0.527923
G1 X165.909 Y148.242 E.02681
;WIDTH:0.528268
G1 X166.039 Y147.67 E.02682
;WIDTH:0.528437
G1 X166.207 Y147.102 E.02708
;WIDTH:0.528799
G1 X166.407 Y146.555 E.02662
;WIDTH:0.528983
G1 X166.642 Y146.018 E.02685
G1 X166.914 Y145.492 E.02711
;WIDTH:0.52919
G1 X167.213 Y144.993 E.02664
G1 X167.546 Y144.51 E.02687
G1 X167.912 Y144.045 E.02713
G1 X168.3 Y143.611 E.02662
;WIDTH:0.52909
G1 X168.718 Y143.199 E.02686
;WIDTH:0.528947
G1 X169.165 Y142.812 E.0271
;WIDTH:0.528711
G1 X169.627 Y142.459 E.02662
;WIDTH:0.528509
G1 X170.116 Y142.133 E.02684
;WIDTH:0.528203
G1 X170.549 Y141.878 E.02298
;WIDTH:0.525827
G1 X171.096 Y141.601 E.02789
;WIDTH:0.526203
G1 X171.666 Y141.359 E.02818
;WIDTH:0.526674
G1 X172.241 Y141.158 E.02774
;WIDTH:0.527175
G1 X172.826 Y140.997 E.02767
;WIDTH:0.527607
G1 X173.4 Y140.878 E.02678
;WIDTH:0.527995
G1 X173.981 Y140.795 E.02681
;WIDTH:0.528393
G1 X174.567 Y140.749 E.02684
