; HEADER_BLOCK_START
; generated by OrcaSlicer 1.7.0 on 2023-12-09 at 13:27:38
; total layer number: 55
; HEADER_BLOCK_END

; THUMBNAIL_BLOCK_START
; THUMBNAIL_BLOCK_END

; external perimeters extrusion width = 0.40mm
; perimeters extrusion width = 0.40mm
; infill extrusion width = 0.50mm
; solid infill extrusion width = 0.40mm
; top infill extrusion width = 0.40mm
; first layer extrusion width = 0.50mm

; EXECUTABLE_BLOCK_START
EXCLUDE_OBJECT_DEFINE NAME=Body1.stl_id_0_copy_0 CENTER=175,150 POLYGON=[[29.3455,240.889],[289.801,22.341],[318.726,56.813],[320.654,59.1112],[60.1993,277.659],[29.3455,240.889]]
M73 P0 R138
;TYPE:Custom
PRINT_START EXTRUDER=260 BED=110
G90
G21
M83 ; use relative distances for extrusion
; Filament gcode
M106 S0
;LAYER_CHANGE
;Z:0.25
;HEIGHT:0.25
;BEFORE_LAYER_CHANGE
;0.25
G92 E0

G1 E-.8 F1800
;AFTER_LAYER_CHANGE
;0.25
;_SET_FAN_SPEED_CHANGING_LAYER
SET_VELOCITY_LIMIT ACCEL=500 ACCEL_TO_DECEL=250
SET_VELOCITY_LIMIT SQUARE_CORNER_VELOCITY=9
G1 Z.25 F24000
G1 X128.593 Y153.251
G1 Z.25
G1 E.8 F1800
;TYPE:Skirt
;WIDTH:0.5
G1 X287.654 Y19.783 E8.92589
G1 X289.113 Y19.074 E.06973
G1 X290.734 Y19.135 E.06973
G1 X292.359 Y20.195 E.08338
G1 X323.212 Y56.965 E2.0634
G1 X323.922 Y58.424 E.06973
G1 X323.86 Y60.044 E.06973
G1 X322.801 Y61.669 E.08338
G1 X62.346 Y280.217 E14.61572
G1 X60.887 Y280.926 E.06973
G1 X59.266 Y280.865 E.06973
G1 X57.641 Y279.805 E.08338
G1 X26.788 Y243.035 E2.0634
G1 X26.078 Y241.576 E.06973
G1 X26.14 Y239.956 E.06973
G1 X27.199 Y238.331 E.08338
G1 X128.563 Y153.277 E5.68811
G1 X128.849 Y153.619 F24000
G1 F1800
G1 X287.941 Y20.125 E8.92761
M73 P0 R137
G1 X289.309 Y19.49 E.06483
G1 X290.811 Y19.63 E.06483
G1 X292.017 Y20.482 E.06345
G1 X322.87 Y57.252 E2.0634
G1 X323.505 Y58.62 E.06483
G1 X323.365 Y60.121 E.06483
G1 X322.514 Y61.327 E.06345
G1 X62.059 Y279.875 E14.61572
G1 X60.691 Y280.51 E.06483
G1 X59.189 Y280.37 E.06483
G1 X57.983 Y279.518 E.06345
G1 X27.13 Y242.748 E2.0634
G1 X26.495 Y241.38 E.06483
G1 X26.635 Y239.879 E.06483
G1 X27.486 Y238.673 E.06345
G1 X128.819 Y153.645 E5.68639
G1 X129.106 Y153.987 F24000
G1 F1800
G1 X288.228 Y20.467 E8.92933
G1 X289.497 Y19.914 E.05952
G1 X290.864 Y20.138 E.05952
G1 X291.675 Y20.769 E.04417
G1 X322.528 Y57.539 E2.0634
G1 X323.082 Y58.808 E.05952
G1 X322.858 Y60.174 E.05952
G1 X322.227 Y60.985 E.04417
G1 X61.772 Y279.533 E14.61572
G1 X60.503 Y280.086 E.05952
G1 X59.136 Y279.862 E.05952
G1 X58.325 Y279.231 E.04417
G1 X27.472 Y242.461 E2.0634
G1 X26.918 Y241.192 E.05952
G1 X27.142 Y239.826 E.05952
G1 X27.773 Y239.015 E.04417
G1 X129.075 Y154.012 E5.68467
; printing object Body1.stl id:0 copy 0
M73 P1 R137
G1 E-.8
EXCLUDE_OBJECT_START NAME=Body1.stl_id_0_copy_0
G1 Z.45 F24000
G1 X31.584 Y241.085 Z.45
G1 Z.25
G1 E.8 F1800
;TYPE:Inner wall
;WIDTH:0.499999
G1 X289.605 Y24.58 E14.47909
M73 P1 R136
G1 X318.416 Y58.915 E1.92678
G1 X60.395 Y275.42 E14.47909
G1 X31.61 Y241.115 E1.92506
G1 X30.955 Y241.03 F24000
G1 F1800
G1 X289.66 Y23.951 E14.51746
G1 X319.045 Y58.97 E1.96515
G1 X60.34 Y276.049 E14.51746
G1 X30.981 Y241.06 E1.96343
G1 X30.327 Y240.975 F24000
G1 F1800
G1 X289.715 Y23.322 E14.55584
G1 X319.673 Y59.025 E2.00353
G1 X60.285 Y276.678 E14.55584
M73 P1 R135
G1 X30.352 Y241.005 E2.00181
G1 X29.698 Y240.92 F24000
;TYPE:Outer wall
G1 F1800
G1 X289.77 Y22.693 E14.59421
M73 P2 R135
G1 X320.302 Y59.08 E2.0419
G1 X60.23 Y277.307 E14.59421
G1 X29.723 Y240.95 E2.04018
G1 E-.8
G1 Z.45 F24000
G1 X40.79 Y239.02 Z.45
G1 Z.25
G1 E.8 F1800
;TYPE:Inner wall
G1 X40.97 Y238.868 E.01013
G1 X41.527 Y238.514 E.02836
G1 X41.896 Y238.341 E.01753
G1 X42.525 Y238.143 E.02836
G1 X42.927 Y238.072 E.01753
G1 X43.572 Y238.044 E.02777
G1 X43.97 Y238.078 E.01718
G1 X44.628 Y238.22 E.02892
G1 X45.019 Y238.361 E.01788
G1 X45.605 Y238.666 E.02836
G1 X45.939 Y238.9 E.01753
G1 X46.425 Y239.345 E.02836
G1 X46.687 Y239.658 E.01753
G1 X47.042 Y240.214 E.02836
G1 X47.214 Y240.584 E.01753
G1 X47.408 Y241.2 E.02777
G1 X47.479 Y241.593 E.01718
G1 X47.512 Y242.265 E.02892
G1 X47.477 Y242.68 E.01788
G1 X47.334 Y243.324 E.02836
G1 X47.194 Y243.707 E.01753
G1 X46.89 Y244.292 E.02836
G1 X46.656 Y244.626 E.01753
G1 X46.21 Y245.113 E.02836
G1 X45.898 Y245.375 E.01753
G1 X45.341 Y245.729 E.02836
G1 X44.972 Y245.902 E.01753
G1 X44.342 Y246.1 E.02836
G1 X43.941 Y246.171 E.01753
G1 X43.282 Y246.2 E.02836
G1 X42.876 Y246.164 E.01753
G1 X42.231 Y246.021 E.02836
G1 X41.848 Y245.882 E.01753
G1 X41.263 Y245.577 E.02836
G1 X40.929 Y245.343 E.01753
G1 X40.443 Y244.898 E.02836
G1 X40.18 Y244.585 E.01753
G1 X39.826 Y244.029 E.02836
G1 X39.654 Y243.659 E.01753
G1 X39.455 Y243.03 E.02836
G1 X39.384 Y242.628 E.01753
G1 X39.356 Y241.969 E.02836
G1 X39.391 Y241.563 E.01753
G1 X39.534 Y240.919 E.02836
G1 X39.674 Y240.536 E.01753
G1 X39.978 Y239.951 E.02836
G1 X40.212 Y239.617 E.01753
G1 X40.658 Y239.13 E.02836
G1 X40.759 Y239.045 E.00568
G1 X41.075 Y239.358 F24000
G1 F1800
G1 X41.21 Y239.244 E.00759
G1 X41.766 Y238.89 E.02836
G1 X42.03 Y238.767 E.01252
G1 X42.66 Y238.569 E.02836
G1 X42.946 Y238.518 E.01252
G1 X43.592 Y238.49 E.02777
G1 X43.876 Y238.514 E.01227
G1 X44.534 Y238.656 E.02892
G1 X44.813 Y238.757 E.01277
G1 X45.399 Y239.062 E.02836
G1 X45.637 Y239.229 E.01252
G1 X46.124 Y239.674 E.02836
G1 X46.311 Y239.897 E.01252
G1 X46.665 Y240.454 E.02836
G1 X46.788 Y240.718 E.01252
G1 X46.983 Y241.334 E.02777
G1 X47.033 Y241.615 E.01227
G1 X47.066 Y242.287 E.02892
G1 X47.041 Y242.583 E.01277
G1 X46.898 Y243.227 E.02836
G1 X46.798 Y243.501 E.01252
G1 X46.494 Y244.086 E.02836
G1 X46.327 Y244.325 E.01252
G1 X45.881 Y244.811 E.02836
G1 X45.658 Y244.998 E.01252
G1 X45.101 Y245.353 E.02836
G1 X44.837 Y245.476 E.01252
G1 X44.208 Y245.674 E.02836
G1 X43.921 Y245.725 E.01252
G1 X43.262 Y245.754 E.02836
G1 X42.972 Y245.728 E.01252
G1 X42.328 Y245.585 E.02836
G1 X42.054 Y245.486 E.01252
G1 X41.469 Y245.181 E.02836
G1 X41.231 Y245.014 E.01252
G1 X40.744 Y244.568 E.02836
G1 X40.557 Y244.345 E.01252
G1 X40.202 Y243.789 E.02836
G1 X40.079 Y243.525 E.01252
G1 X39.881 Y242.896 E.02836
G1 X39.83 Y242.609 E.01252
G1 X39.802 Y241.95 E.02836
G1 X39.827 Y241.66 E.01252
G1 X39.97 Y241.016 E.02836
G1 X40.069 Y240.742 E.01252
G1 X40.374 Y240.157 E.02836
G1 X40.541 Y239.918 E.01252
G1 X40.987 Y239.432 E.02836
G1 X41.044 Y239.384 E.00321
G1 X41.393 Y239.681 F24000
G1 F1800
G1 X42.006 Y239.266 E.0318
G1 X42.794 Y238.994 E.03582
G1 X43.611 Y238.936 E.03523
G1 X44.44 Y239.092 E.03624
G1 X45.192 Y239.457 E.03597
G1 X45.822 Y240.003 E.03582
G1 X46.289 Y240.694 E.03582
G1 X46.557 Y241.468 E.03523
G1 X46.62 Y242.309 E.03624
G1 X46.462 Y243.131 E.03597
G1 X46.098 Y243.88 E.03582
G1 X45.552 Y244.51 E.03582
G1 X44.862 Y244.976 E.03582
G1 X44.074 Y245.249 E.03582
G1 X43.243 Y245.308 E.03582
G1 X42.425 Y245.15 E.03582
G1 X41.675 Y244.785 E.03582
G1 X41.046 Y244.239 E.03582
G1 X40.579 Y243.549 E.03582
G1 X40.307 Y242.762 E.03582
G1 X40.248 Y241.93 E.03582
G1 X40.406 Y241.112 E.03582
G1 X40.77 Y240.363 E.03582
G1 X41.316 Y239.733 E.03582
G1 X41.36 Y239.703 E.0023
G1 X41.653 Y240.029 F24000
;TYPE:Outer wall
G1 F1800
G1 X42.246 Y239.643 E.03041
G1 X42.928 Y239.42 E.03084
G1 X43.631 Y239.382 E.03025
G1 X44.345 Y239.529 E.03136
G1 X44.986 Y239.853 E.0309
G1 X45.52 Y240.332 E.03084
G1 X45.912 Y240.934 E.03084
G1 X46.131 Y241.602 E.03026
G1 X46.174 Y242.331 E.03136
G1 X46.026 Y243.034 E.03089
G1 X45.702 Y243.674 E.03084
G1 X45.223 Y244.208 E.03084
G1 X44.622 Y244.6 E.03084
G1 X43.94 Y244.823 E.03084
G1 X43.223 Y244.862 E.03084
G1 X42.521 Y244.714 E.03084
G1 X41.881 Y244.389 E.03084
G1 X41.347 Y243.91 E.03084
G1 X40.955 Y243.309 E.03084
G1 X40.732 Y242.627 E.03084
G1 X40.693 Y241.911 E.03084
G1 X40.841 Y241.209 E.03084
G1 X41.166 Y240.569 E.03084
G1 X41.625 Y240.057 E.02956
G1 E-.8
G1 Z.45 F24000
G1 X291.67 Y33.785 Z.45
G1 Z.25
G1 E.8 F1800
;TYPE:Inner wall
G1 X291.821 Y33.966 E.01013
G1 X292.176 Y34.522 E.02836
G1 X292.348 Y34.892 E.01753
G1 X292.547 Y35.521 E.02836
G1 X292.617 Y35.922 E.01753
G1 X292.646 Y36.581 E.02836
G1 X292.611 Y36.988 E.01753
G1 X292.468 Y37.632 E.02836
G1 X292.328 Y38.015 E.01753
G1 X292.024 Y38.6 E.02836
G1 X291.79 Y38.934 E.01753
G1 X291.344 Y39.421 E.02836
G1 X291.032 Y39.683 E.01753
G1 X290.475 Y40.037 E.02836
G1 X290.106 Y40.21 E.01753
G1 X289.49 Y40.404 E.02777
G1 X289.096 Y40.474 E.01718
G1 X288.424 Y40.507 E.02892
G1 X288.01 Y40.472 E.01788
G1 X287.366 Y40.329 E.02836
G1 X286.982 Y40.19 E.01753
G1 X286.397 Y39.885 E.02836
G1 X286.063 Y39.651 E.01753
G1 X285.577 Y39.205 E.02836
G1 X285.315 Y38.893 E.01753
G1 X284.96 Y38.337 E.02836
G1 X284.788 Y37.967 E.01753
G1 X284.589 Y37.338 E.02836
G1 X284.519 Y36.936 E.01753
G1 X284.49 Y36.277 E.02836
G1 X284.525 Y35.871 E.01753
G1 X284.668 Y35.227 E.02836
G1 X284.808 Y34.844 E.01753
G1 X285.112 Y34.259 E.02836
G1 X285.346 Y33.924 E.01753
G1 X285.792 Y33.438 E.02836
G1 X286.104 Y33.176 E.01753
G1 X286.661 Y32.822 E.02836
G1 X287.03 Y32.649 E.01753
G1 X287.659 Y32.451 E.02836
G1 X288.061 Y32.38 E.01753
G1 X288.707 Y32.352 E.02777
G1 X289.105 Y32.386 E.01718
G1 X289.762 Y32.528 E.02892
G1 X290.154 Y32.669 E.01788
G1 X290.739 Y32.974 E.02836
G1 X291.073 Y33.208 E.01753
G1 X291.559 Y33.653 E.02836
G1 X291.644 Y33.754 E.00568
G1 X291.332 Y34.07 F24000
G1 F1800
G1 X291.445 Y34.205 E.00759
G1 X291.8 Y34.762 E.02836
G1 X291.923 Y35.026 E.01252
G1 X292.121 Y35.655 E.02836
G1 X292.172 Y35.942 E.01252
G1 X292.2 Y36.601 E.02836
G1 X292.175 Y36.891 E.01252
G1 X292.032 Y37.535 E.02836
G1 X291.933 Y37.809 E.01252
G1 X291.628 Y38.394 E.02836
G1 X291.461 Y38.633 E.01252
G1 X291.015 Y39.119 E.02836
G1 X290.792 Y39.306 E.01252
G1 X290.236 Y39.661 E.02836
G1 X289.972 Y39.784 E.01252
G1 X289.355 Y39.978 E.02777
G1 X289.074 Y40.028 E.01227
G1 X288.402 Y40.061 E.02892
G1 X288.106 Y40.036 E.01277
G1 X287.462 Y39.893 E.02836
G1 X287.189 Y39.794 E.01252
G1 X286.603 Y39.489 E.02836
G1 X286.365 Y39.322 E.01252
G1 X285.878 Y38.876 E.02836
G1 X285.691 Y38.653 E.01252
G1 X285.337 Y38.097 E.02836
G1 X285.214 Y37.833 E.01252
G1 X285.015 Y37.204 E.02836
G1 X284.965 Y36.917 E.01252
G1 X284.936 Y36.258 E.02836
G1 X284.961 Y35.968 E.01252
G1 X285.104 Y35.324 E.02836
G1 X285.204 Y35.05 E.01252
G1 X285.508 Y34.465 E.02836
G1 X285.675 Y34.226 E.01252
G1 X286.121 Y33.74 E.02836
G1 X286.344 Y33.552 E.01252
G1 X286.901 Y33.198 E.02836
G1 X287.165 Y33.075 E.01252
G1 X287.794 Y32.876 E.02836
G1 X288.081 Y32.826 E.01252
G1 X288.726 Y32.798 E.02777
G1 X289.01 Y32.822 E.01227
G1 X289.668 Y32.964 E.02892
G1 X289.948 Y33.065 E.01277
G1 X290.533 Y33.37 E.02836
G1 X290.771 Y33.537 E.01252
G1 X291.258 Y33.982 E.02836
G1 X291.306 Y34.039 E.00321
G1 X291.009 Y34.389 F24000
G1 F1800
G1 X291.423 Y35.002 E.0318
G1 X291.695 Y35.789 E.03582
G1 X291.754 Y36.62 E.03582
G1 X291.596 Y37.439 E.03582
G1 X291.232 Y38.188 E.03582
G1 X290.686 Y38.818 E.03582
G1 X289.996 Y39.284 E.03582
G1 X289.221 Y39.552 E.03523
G1 X288.381 Y39.616 E.03624
G1 X287.559 Y39.458 E.03597
G1 X286.809 Y39.093 E.03582
G1 X286.18 Y38.547 E.03582
G1 X285.713 Y37.857 E.03582
G1 X285.441 Y37.069 E.03582
G1 X285.382 Y36.238 E.03582
G1 X285.54 Y35.42 E.03582
G1 X285.904 Y34.671 E.03582
G1 X286.45 Y34.041 E.03582
G1 X287.14 Y33.574 E.03582
G1 X287.928 Y33.302 E.03582
G1 X288.745 Y33.244 E.03523
G1 X289.574 Y33.4 E.03624
G1 X290.327 Y33.765 E.03597
G1 X290.956 Y34.311 E.03582
G1 X290.986 Y34.356 E.0023
G1 X290.66 Y34.649 F24000
;TYPE:Outer wall
G1 F1800
G1 X291.047 Y35.241 E.03041
G1 X291.27 Y35.923 E.03084
G1 X291.308 Y36.64 E.03084
G1 X291.161 Y37.342 E.03084
G1 X290.836 Y37.982 E.03084
G1 X290.357 Y38.516 E.03084
G1 X289.756 Y38.908 E.03084
G1 X289.087 Y39.127 E.03026
G1 X288.359 Y39.17 E.03136
G1 X287.655 Y39.022 E.0309
G1 X287.016 Y38.697 E.03084
G1 X286.481 Y38.218 E.03084
G1 X286.09 Y37.617 E.03084
G1 X285.867 Y36.935 E.03084
G1 X285.828 Y36.219 E.03084
G1 X285.976 Y35.517 E.03084
G1 X286.3 Y34.877 E.03084
G1 X286.779 Y34.343 E.03084
G1 X287.38 Y33.951 E.03084
G1 X288.062 Y33.728 E.03084
G1 X288.765 Y33.69 E.03026
G1 X289.479 Y33.837 E.03136
G1 X290.121 Y34.161 E.0309
G1 X290.632 Y34.621 E.02956
G1 E-.8
G1 Z.45 F24000
G1 X289.095 Y25.153 Z.45
G1 Z.25
G1 E.8 F1800
;TYPE:Bottom surface
;WIDTH:0.500035
G1 F3600
G1 X292.722 Y28.78 E.21831
G1 X296.014 Y32.704 E.21798
M73 P2 R134
G1 X288.894 Y25.584 E.42855
G1 X288.551 Y25.872 E.01907
G1 X299.306 Y36.627 E.64736
G1 X302.598 Y40.551 E.21798
G1 X288.207 Y26.16 E.86618
G1 X287.864 Y26.448 E.01907
G1 X305.89 Y44.474 E1.085
G1 X309.183 Y48.398 E.21798
G1 X287.521 Y26.736 E1.30382
G1 X287.178 Y27.024 E.01907
G1 X312.475 Y52.321 E1.52263
G1 X315.767 Y56.245 E.21798
G1 X286.834 Y27.312 E1.74145
G1 X286.491 Y27.6 E.01907
G1 X317.863 Y58.972 E1.88825
G1 X317.519 Y59.26 E.01907
G1 X286.148 Y27.888 E1.88825
G1 X285.805 Y28.176 E.01907
G1 X289.862 Y32.234 E.24422
G1 X289.067 Y32.07 E.03456
G1 X285.461 Y28.464 E.21701
G1 X285.118 Y28.752 E.01907
G1 X288.424 Y32.058 E.19898
G1 X288.042 Y32.068 E.01625
G1 X287.839 Y32.104 E.00882
G1 X284.775 Y29.04 E.1844
G1 X284.432 Y29.328 E.01907
G1 X287.33 Y32.227 E.17447
G1 X286.859 Y32.387 E.02119
G1 X284.088 Y29.616 E.16674
G1 X283.745 Y29.904 E.01907
G1 X286.436 Y32.595 E.16197
G1 X286.056 Y32.847 E.01939
G1 X283.402 Y30.192 E.15976
G1 X283.059 Y30.48 E.01907
G1 X285.688 Y33.11 E.15828
G1 X285.382 Y33.435 E.01901
G1 X282.715 Y30.768 E.1605
G1 X282.372 Y31.057 E.01907
G1 X285.076 Y33.76 E.16273
G1 X284.823 Y34.138 E.01937
G1 X282.029 Y31.345 E.16816
G1 X281.686 Y31.633 E.01907
G1 X284.607 Y34.554 E.17581
G1 X284.528 Y34.705 E.00725
G1 X284.421 Y34.999 E.01333
G1 X281.342 Y31.921 E.18529
G1 X280.999 Y32.209 E.01907
G1 X284.293 Y35.503 E.19829
G1 X284.187 Y36.028 E.02279
G1 X280.656 Y32.497 E.21254
G1 X280.313 Y32.785 E.01907
G1 X284.199 Y36.671 E.23392
G1 X284.235 Y37.205 E.02277
G1 X284.291 Y37.395 E.00844
G1 X279.827 Y32.93 E.26873
G1 E-.8 F1800
G1 Z.45 F24000
G1 X292.425 Y34.797 Z.45
G1 Z.25
G1 E.8 F1800
G1 F3600
G1 X317.176 Y59.548 E1.48978
G1 X316.833 Y59.836 E.01907
G1 X292.93 Y35.933 E1.4387
G1 X292.947 Y36.581 E.02759
G1 X316.49 Y60.124 E1.41704
G1 X316.146 Y60.412 E.01907
G1 X292.885 Y37.151 E1.40009
G1 X292.778 Y37.675 E.02277
G1 X315.803 Y60.7 E1.38588
G1 X315.46 Y60.988 E.01907
G1 X292.614 Y38.142 E1.37512
G1 X292.398 Y38.558 E.01993
G1 X315.117 Y61.276 E1.36742
G1 X314.773 Y61.564 E.01907
G1 X292.169 Y38.96 E1.36053
G1 X291.877 Y39.299 E.01905
G1 X314.43 Y61.852 E1.35748
G1 X314.087 Y62.14 E.01907
G1 X291.572 Y39.625 E1.35517
G1 X291.448 Y39.757 E.0077
G1 X291.235 Y39.92 E.01141
G1 X313.744 Y62.428 E1.35478
G1 X313.4 Y62.716 E.01907
G1 X290.852 Y40.168 E1.35718
G1 X290.639 Y40.303 E.01074
G1 X290.45 Y40.397 E.00899
G1 X313.057 Y63.004 E1.36073
G1 X312.714 Y63.292 E.01907
G1 X289.993 Y40.571 E1.36756
G1 X289.511 Y40.72 E.02148
G1 X312.371 Y63.58 E1.37593
G1 X312.027 Y63.868 E.01907
G1 X288.946 Y40.787 E1.38926
G1 X288.34 Y40.812 E.02581
G1 X311.684 Y64.156 E1.40506
G1 X311.341 Y64.444 E.01907
G1 X287.33 Y40.434 E1.44519
G1 E-.8 F1800
G1 Z.45 F24000
G1 X279.484 Y33.218 Z.45
G1 Z.25
G1 E.8 F1800
G1 F3600
G1 X284.606 Y38.34 E.30831
G1 X285.053 Y39.064 E.03623
G1 X285.259 Y39.331 E.01432
G1 X286.018 Y40.018 E.04358
G1 X286.25 Y40.161 E.01159
G1 X286.615 Y40.349 E.01747
G1 X310.997 Y64.732 E1.4676
G1 X310.654 Y65.02 E.01907
G1 X279.283 Y33.649 E1.88825
G1 X278.94 Y33.937 E.01907
G1 X310.311 Y65.308 E1.88825
G1 X309.968 Y65.596 E.01907
G1 X278.596 Y34.225 E1.88825
G1 X278.253 Y34.513 E.01907
G1 X309.624 Y65.884 E1.88825
G1 X309.281 Y66.172 E.01907
G1 X277.91 Y34.801 E1.88825
G1 X277.567 Y35.089 E.01907
G1 X308.938 Y66.46 E1.88825
G1 X308.595 Y66.748 E.01907
G1 X277.223 Y35.377 E1.88825
G1 X276.88 Y35.665 E.01907
G1 X308.251 Y67.036 E1.88825
G1 X307.908 Y67.324 E.01907
G1 X276.537 Y35.953 E1.88825
G1 X276.194 Y36.241 E.01907
G1 X307.565 Y67.612 E1.88825
G1 X307.222 Y67.9 E.01907
G1 X275.85 Y36.529 E1.88825
G1 X275.507 Y36.817 E.01907
G1 X306.878 Y68.188 E1.88825
M73 P3 R134
G1 X306.535 Y68.476 E.01907
G1 X275.164 Y37.105 E1.88825
G1 X274.82 Y37.393 E.01907
G1 X306.192 Y68.764 E1.88825
G1 X305.849 Y69.053 E.01907
G1 X274.477 Y37.681 E1.88825
G1 X274.134 Y37.969 E.01907
