; HEADER_BLOCK_START
; generated by OrcaSlicer 1.7.0 on 2024-01-03 at 12:18:21
; total layer number: 29
; HEADER_BLOCK_END

; THUMBNAIL_BLOCK_START
; THUMBNAIL_BLOCK_END

; external perimeters extrusion width = 0.40mm
; perimeters extrusion width = 0.40mm
; infill extrusion width = 0.50mm
; solid infill extrusion width = 0.40mm
; top infill extrusion width = 0.40mm
; first layer extrusion width = 0.50mm

; EXECUTABLE_BLOCK_START
EXCLUDE_OBJECT_DEFINE NAME=Cashplate_M.stl_id_0_copy_0 CENTER=175.074,150.417 POLYGON=[[148.038,188.115],[148.074,112.617],[148.08,112.372],[148.098,112.127],[148.128,111.884],[148.17,111.642],[148.223,111.402],[148.289,111.166],[148.366,110.933],[148.454,110.704],[148.554,110.479],[148.664,110.26],[148.785,110.047],[148.916,109.839],[149.058,109.639],[149.209,109.445],[149.369,109.259],[149.538,109.082],[149.716,108.912],[149.902,108.752],[150.095,108.601],[150.296,108.46],[150.503,108.329],[150.717,108.208],[150.936,108.097],[151.16,107.998],[151.389,107.909],[151.622,107.832],[151.859,107.767],[152.098,107.713],[152.34,107.671],[152.583,107.641],[152.828,107.623],[153.074,107.617],[197.074,107.617],[197.319,107.623],[197.564,107.641],[197.807,107.671],[198.049,107.713],[198.288,107.767],[198.525,107.832],[198.758,107.909],[198.987,107.998],[199.211,108.097],[199.431,108.208],[199.644,108.329],[199.851,108.46],[200.052,108.601],[200.246,108.752],[200.431,108.912],[200.609,109.082],[200.778,109.259],[200.939,109.445],[201.09,109.639],[201.231,109.839],[201.362,110.047],[201.483,110.26],[201.594,110.479],[201.693,110.704],[201.781,110.933],[201.858,111.166],[201.924,111.402],[201.977,111.642],[202.019,111.884],[202.049,112.127],[202.068,112.372],[202.074,112.617],[202.109,188.115],[202.108,188.365],[202.094,188.614],[202.068,188.863],[202.029,189.109],[201.979,189.354],[201.916,189.596],[201.841,189.834],[201.755,190.068],[201.656,190.298],[201.547,190.522],[201.426,190.741],[201.295,190.953],[201.153,191.159],[201.001,191.357],[200.839,191.547],[200.668,191.729],[200.489,191.903],[200.3,192.067],[200.104,192.221],[199.901,192.366],[199.69,192.5],[199.473,192.624],[199.25,192.736],[199.022,192.837],[198.789,192.927],[198.551,193.005],[198.31,193.071],[198.067,193.125],[197.82,193.167],[197.572,193.196],[197.323,193.213],[197.074,193.217],[153.074,193.217],[152.824,193.213],[152.575,193.196],[152.327,193.167],[152.08,193.125],[151.837,193.071],[151.596,193.005],[151.359,192.927],[151.125,192.837],[150.897,192.736],[150.674,192.624],[150.457,192.5],[150.247,192.366],[150.043,192.221],[149.847,192.067],[149.658,191.903],[149.479,191.729],[149.308,191.547],[149.146,191.357],[148.994,191.159],[148.852,190.953],[148.721,190.741],[148.6,190.522],[148.491,190.298],[148.393,190.068],[148.306,189.834],[148.231,189.596],[148.168,189.354],[148.118,189.109],[148.079,188.863],[148.053,188.614],[148.04,188.365],[148.038,188.115]]
M73 P0 R20
;TYPE:Custom
PRINT_START EXTRUDER=260 BED=110
G90
G21
M83 ; use relative distances for extrusion
; Filament gcode
M106 S0
;LAYER_CHANGE
;Z:0.25
;HEIGHT:0.25
;BEFORE_LAYER_CHANGE
;0.25
G92 E0

G1 E-.8 F1800
;AFTER_LAYER_CHANGE
;0.25
;_SET_FAN_SPEED_CHANGING_LAYER
SET_VELOCITY_LIMIT ACCEL=1000 ACCEL_TO_DECEL=500
SET_VELOCITY_LIMIT SQUARE_CORNER_VELOCITY=9
G1 Z.25 F24000
G1 X146.186 Y107.917
G1 Z.25
G1 E.8 F1800
;TYPE:Skirt
;WIDTH:0.5
G1 X146.84 Y107.078 E.04571
G1 X147.535 Y106.384 E.04221
G1 X148.373 Y105.73 E.04571
G1 X149.215 Y105.225 E.04221
G1 X150.187 Y104.794 E.04571
G1 X151.127 Y104.509 E.04221
G1 X152.329 Y104.312 E.05236
G1 X197.156 Y104.279 E1.92697
G1 X198.781 Y104.455 E.07027
G1 X200.189 Y104.882 E.06325
G1 X201.638 Y105.639 E.07026
G1 X202.734 Y106.494 E.05977
G1 X203.82 Y107.716 E.07027
G1 X204.576 Y108.978 E.06325
G1 X205.076 Y110.275 E.05976
G1 X205.379 Y111.882 E.07027
G1 X205.447 Y188.377 E3.28833
G1 X205.389 Y189.211 E.03595
G1 X205.21 Y190.194 E.04295
G1 X204.886 Y191.226 E.04651
G1 X204.471 Y192.135 E.04295
G1 X203.901 Y193.055 E.04651
G1 X203.274 Y193.833 E.04295
G1 X202.495 Y194.584 E.04652
G1 X201.695 Y195.182 E.04295
G1 X200.754 Y195.717 E.04651
G1 X199.831 Y196.099 E.04296
G1 X198.624 Y196.417 E.05366
G1 X197.549 Y196.544 E.04651
G1 X152.765 Y196.551 E1.92517
G1 X150.954 Y196.291 E.07863
G1 X149.929 Y195.955 E.04636
G1 X149.17 Y195.605 E.03595
G1 X148.314 Y195.089 E.04295
G1 X147.341 Y194.307 E.05366
G1 X146.604 Y193.522 E.04628
G1 X146.013 Y192.71 E.04319
G1 X145.493 Y191.767 E.04628
G1 X145.12 Y190.834 E.04318
G1 X144.818 Y189.623 E.05366
G1 X144.706 Y188.547 E.04651
G1 X144.735 Y112.616 E3.26409
G1 X144.784 Y111.718 E.03863
G1 X144.963 Y110.68 E.04531
G1 X145.251 Y109.731 E.04261
G1 X145.681 Y108.759 E.04571
G1 X146.166 Y107.951 E.04049
G1 X146.548 Y108.18 F24000
M73 P1 R20
G1 F1800
G1 X146.551 Y108.174 E.00031
G1 X147.178 Y107.37 E.04383
G1 X147.826 Y106.722 E.03939
G1 X148.63 Y106.095 E.04383
G1 X149.416 Y105.624 E.03939
G1 X150.348 Y105.211 E.04383
G1 X151.225 Y104.945 E.03939
G1 X152.362 Y104.757 E.04956
G1 X197.145 Y104.725 E1.92507
G1 X198.683 Y104.891 E.06651
G1 X200.028 Y105.299 E.06043
G1 X201.399 Y106.016 E.0665
G1 X202.426 Y106.817 E.056
G1 X203.455 Y107.973 E.06651
G1 X204.177 Y109.179 E.06043
G1 X204.646 Y110.394 E.056
G1 X204.934 Y111.914 E.06651
G1 X205 Y188.375 E3.28685
G1 X204.778 Y190.082 E.07398
G1 X204.468 Y191.072 E.0446
G1 X204.08 Y191.919 E.04008
G1 X203.534 Y192.802 E.0446
G1 X202.948 Y193.527 E.04008
G1 X202.201 Y194.247 E.0446
G1 X201.455 Y194.806 E.04008
G1 X200.553 Y195.319 E.04459
G1 X199.691 Y195.675 E.04009
G1 X198.549 Y195.977 E.05079
G1 X197.519 Y196.099 E.04459
G1 X152.773 Y196.105 E1.92353
G1 X151.072 Y195.861 E.07385
G1 X150.089 Y195.538 E.04446
G1 X149.371 Y195.206 E.03401
G1 X148.572 Y194.725 E.04008
G1 X147.651 Y193.985 E.05079
G1 X146.944 Y193.233 E.04436
G1 X146.392 Y192.475 E.04031
G1 X145.894 Y191.572 E.04437
G1 X145.546 Y190.701 E.04031
G1 X145.285 Y189.697 E.0446
G1 X145.151 Y188.523 E.05079
G1 X145.181 Y112.616 E3.26304
G1 X145.227 Y111.773 E.03629
G1 X145.399 Y110.776 E.04348
G1 X145.667 Y109.892 E.03973
G1 X146.08 Y108.96 E.04383
G1 X146.527 Y108.214 E.03736
G1 X146.909 Y108.443 F24000
G1 F1800
G1 X146.916 Y108.431 E.00062
G1 X147.516 Y107.661 E.04194
G1 X148.118 Y107.06 E.03656
G1 X148.887 Y106.46 E.04194
G1 X149.617 Y106.022 E.03656
G1 X150.509 Y105.627 E.04195
G1 X151.323 Y105.38 E.03657
G1 X152.396 Y105.202 E.04676
G1 X197.134 Y105.172 E1.92317
M73 P2 R20
G1 X198.467 Y105.303 E.05761
G1 X199.867 Y105.715 E.06275
G1 X201.16 Y106.393 E.06274
G1 X202.118 Y107.141 E.05224
G1 X203.09 Y108.23 E.06274
G1 X203.779 Y109.379 E.05761
G1 X204.216 Y110.513 E.05224
G1 X204.489 Y111.947 E.06275
G1 X204.554 Y188.374 E3.28537
M73 P2 R19
G1 X204.346 Y189.969 E.06918
G1 X204.049 Y190.917 E.04268
G1 X203.689 Y191.704 E.03721
G1 X203.166 Y192.548 E.04268
G1 X202.623 Y193.222 E.03721
G1 X201.908 Y193.911 E.04268
G1 X201.215 Y194.429 E.03721
G1 X200.352 Y194.92 E.04268
G1 X199.552 Y195.251 E.03721
G1 X198.475 Y195.537 E.04792
G1 X197.489 Y195.653 E.04268
G1 X153.03 Y195.663 E1.91116
G1 X151.309 Y195.46 E.07452
G1 X150.487 Y195.213 E.03686
G1 X149.572 Y194.808 E.04302
G1 X148.831 Y194.361 E.03721
G1 X147.961 Y193.664 E.04792
G1 X147.285 Y192.944 E.04245
G1 X146.772 Y192.24 E.03744
G1 X146.295 Y191.376 E.04245
G1 X145.972 Y190.567 E.03744
G1 X145.722 Y189.606 E.04268
G1 X145.597 Y188.498 E.04792
G1 X145.627 Y112.616 E3.26198
G1 X145.67 Y111.828 E.03394
G1 X145.835 Y110.873 E.04165
G1 X146.083 Y110.052 E.03686
G1 X146.479 Y109.16 E.04195
G1 X146.888 Y108.477 E.03423
; printing object Cashplate M.stl id:0 copy 0
G1 E-.8
EXCLUDE_OBJECT_START NAME=Cashplate_M.stl_id_0_copy_0
G1 Z.45 F24000
G1 X149.963 Y189.646 Z.45
G1 Z.25
G1 E.8 F1800
;TYPE:Inner wall
;WIDTH:0.499999
G1 X149.819 Y189.337 E.01465
G1 X149.686 Y188.825 E.02274
G1 X149.632 Y188.318 E.02192
G1 X149.663 Y187.618 E.0301
G1 X149.663 Y112.873 E3.2131
M73 P3 R19
G1 X149.703 Y112.287 E.02525
G1 X149.802 Y111.665 E.02711
G1 X150.072 Y111.013 E.03033
G1 X150.443 Y110.458 E.0287
G1 X150.939 Y109.962 E.03014
G1 X151.276 Y109.731 E.01759
G1 X151.822 Y109.459 E.02622
G1 X152.342 Y109.309 E.02326
G1 X152.888 Y109.212 E.02381
G1 X197.217 Y109.212 E1.90561
G1 X197.72 Y109.274 E.02176
G1 X198.376 Y109.473 E.02949
G1 X198.964 Y109.787 E.02868
G1 X199.495 Y110.223 E.02952
G1 X199.797 Y110.573 E.01987
G1 X200.15 Y111.162 E.02951
G1 X200.375 Y111.79 E.02868
G1 X200.478 Y112.488 E.03034
G1 X200.485 Y187.618 E3.22963
G1 X200.504 Y188.092 E.02038
G1 X200.464 Y188.806 E.03073
G1 X200.266 Y189.496 E.03088
G1 X200.059 Y189.919 E.02022
G1 X199.792 Y190.286 E.01954
G1 X199.447 Y190.683 E.02261
G1 X198.884 Y191.124 E.03072
G1 X198.235 Y191.431 E.03089
G1 X197.762 Y191.561 E.02108
G1 X197.23 Y191.624 E.02301
G1 X152.937 Y191.624 E1.90404
G1 X152.201 Y191.518 E.03198
G1 X151.754 Y191.371 E.02022
G1 X151.121 Y191.032 E.03089
G1 X150.735 Y190.728 E.02109
G1 X150.376 Y190.346 E.02256
G1 X150.061 Y189.854 E.0251
G1 X149.98 Y189.682 E.00816
G1 X149.555 Y189.838 F24000
G1 F1800
G1 X149.394 Y189.477 E.017
G1 X149.245 Y188.905 E.02539
G1 X149.185 Y188.331 E.0248
G1 X149.216 Y187.618 E.03067
G1 X149.216 Y112.672 E3.22173
G1 X149.282 Y112.005 E.02883
G1 X149.377 Y111.524 E.02106
G1 X149.677 Y110.801 E.03364
G1 X150.096 Y110.173 E.03248
G1 X150.515 Y109.754 E.02545
G1 X150.921 Y109.419 E.02263
G1 X151.422 Y109.135 E.02477
G1 X151.942 Y108.934 E.02398
G1 X152.871 Y108.766 E.04057
G1 X197.244 Y108.766 E1.9075
M73 P4 R19
G1 X197.812 Y108.835 E.02459
G1 X198.548 Y109.059 E.03304
G1 X199.214 Y109.414 E.03246
G1 X199.808 Y109.902 E.03307
G1 X200.16 Y110.311 E.02318
G1 X200.556 Y110.97 E.03306
G1 X200.81 Y111.681 E.03246
G1 X200.925 Y112.456 E.03365
G1 X200.931 Y187.618 E3.23105
G1 X200.962 Y188.331 E.03068
G1 X200.903 Y188.891 E.0242
G1 X200.684 Y189.657 E.03424
G1 X200.443 Y190.15 E.02358
G1 X199.975 Y190.794 E.03425
G1 X199.569 Y191.185 E.02419
G1 X199.11 Y191.51 E.0242
G1 X198.39 Y191.851 E.03425
G1 X197.847 Y192 E.0242
G1 X197.256 Y192.07 E.02558
G1 X152.905 Y192.07 E1.90654
G1 X152.098 Y191.954 E.03503
G1 X151.577 Y191.783 E.02358
G1 X150.875 Y191.406 E.03425
G1 X150.637 Y191.219 E.01305
G1 X150.255 Y190.869 E.02225
G1 X149.925 Y190.485 E.02176
G1 X149.615 Y189.971 E.0258
G1 X149.572 Y189.874 E.00456
G1 X149.15 Y190.019 F24000
G1 F1800
G1 X148.969 Y189.616 E.019
G1 X148.805 Y188.985 E.02803
G1 X148.738 Y188.344 E.02768
G1 X148.77 Y187.618 E.03124
G1 X148.77 Y112.651 E3.22267
G1 X148.837 Y111.961 E.02977
G1 X148.952 Y111.384 E.0253
G1 X149.281 Y110.59 E.03695
G1 X149.75 Y109.889 E.03626
G1 X150.199 Y109.439 E.02733
G1 X150.676 Y109.044 E.02662
G1 X151.23 Y108.73 E.02736
G1 X151.817 Y108.504 E.02705
G1 X152.854 Y108.32 E.04528
G1 X197.272 Y108.319 E1.90939
G1 X197.905 Y108.397 E.02742
G1 X198.719 Y108.644 E.03658
G1 X199.463 Y109.042 E.03624
G1 X200.121 Y109.582 E.03661
G1 X200.523 Y110.048 E.02648
G1 X200.961 Y110.779 E.0366
G1 X201.245 Y111.572 E.03624
G1 X201.371 Y112.423 E.03695
G1 X201.377 Y187.618 E3.23246
M73 P5 R19
G1 X201.41 Y188.344 E.03125
G1 X201.343 Y188.976 E.02732
G1 X201.102 Y189.817 E.0376
G1 X200.827 Y190.381 E.02695
G1 X200.312 Y191.088 E.03761
G1 X199.855 Y191.529 E.02731
G1 X199.337 Y191.897 E.02732
G1 X198.546 Y192.272 E.03761
G1 X197.933 Y192.44 E.02732
G1 X197.283 Y192.516 E.02815
G1 X152.873 Y192.516 E1.90904
G1 X151.996 Y192.391 E.03808
G1 X151.401 Y192.195 E.02695
G1 X150.63 Y191.781 E.03761
G1 X150.36 Y191.569 E.01473
G1 X149.901 Y191.144 E.02694
G1 X149.564 Y190.748 E.02233
G1 X149.224 Y190.186 E.0282
G1 X149.166 Y190.056 E.00615
G1 X148.744 Y190.201 F24000
;TYPE:Outer wall
G1 F1800
G1 X148.544 Y189.756 E.021
G1 X148.364 Y189.065 E.03068
G1 X148.29 Y188.358 E.03057
G1 X148.324 Y187.618 E.0318
G1 X148.324 Y112.629 E3.22361
G1 X148.393 Y111.918 E.03071
G1 X148.527 Y111.244 E.02953
G1 X148.885 Y110.379 E.04027
G1 X149.403 Y109.604 E.04004
G1 X149.883 Y109.123 E.02922
G1 X150.432 Y108.67 E.03062
G1 X151.039 Y108.326 E.02996
G1 X151.692 Y108.073 E.03012
G1 X152.228 Y107.966 E.0235
G1 X152.838 Y107.873 E.02649
G1 X197.299 Y107.873 E1.91128
G1 X197.997 Y107.959 E.03025
G1 X198.891 Y108.23 E.04013
G1 X199.712 Y108.669 E.04002
G1 X200.434 Y109.261 E.04015
G1 X200.886 Y109.786 E.02979
G1 X201.366 Y110.587 E.04014
G1 X201.68 Y111.463 E.04002
G1 X201.818 Y112.39 E.04026
G1 X201.824 Y187.618 E3.23388
G1 X201.857 Y188.358 E.03182
G1 X201.783 Y189.062 E.03044
G1 X201.52 Y189.978 E.04096
G1 X201.211 Y190.612 E.03031
G1 X200.65 Y191.382 E.04098
G1 X200.141 Y191.874 E.03043
G1 X199.563 Y192.284 E.03044
G1 X198.702 Y192.692 E.04098
G1 X198.019 Y192.879 E.03045
G1 X197.309 Y192.963 E.03072
G1 X152.841 Y192.963 E1.91154
M73 P6 R19
G1 X151.894 Y192.827 E.04113
G1 X151.224 Y192.607 E.03031
G1 X150.384 Y192.156 E.04098
G1 X149.828 Y191.718 E.03045
G1 X149.204 Y191.011 E.04056
G1 X148.834 Y190.402 E.03061
G1 X148.76 Y190.238 E.00774
G1 E-.8
G1 Z.45 F24000
G1 X200.31 Y112.113 Z.45
G1 Z.25
G1 E.8 F1800
;TYPE:Bottom surface
;WIDTH:0.500832
G1 F3600
G1 X197.831 Y109.634 E.14949
G1 X197.655 Y109.581 E.00785
G1 X197.089 Y109.525 E.02424
G1 X200.166 Y112.602 E.18555
G1 X200.166 Y113.234 E.02697
G1 X196.457 Y109.525 E.22368
G1 X195.824 Y109.525 E.02696
G1 X200.166 Y113.867 E.26182
G1 X200.166 Y114.499 E.02697
G1 X195.192 Y109.525 E.29995
G1 X194.559 Y109.525 E.02696
G1 X200.166 Y115.132 E.33809
G1 X200.166 Y115.764 E.02697
G1 X193.927 Y109.525 E.37622
G1 X193.294 Y109.525 E.02696
G1 X200.166 Y116.396 E.41436
G1 X200.166 Y117.029 E.02697
G1 X192.662 Y109.525 E.4525
G1 X192.03 Y109.525 E.02696
G1 X200.166 Y117.661 E.49063
G1 X200.167 Y118.294 E.02697
G1 X191.397 Y109.525 E.52877
G1 X190.765 Y109.525 E.02696
G1 X200.167 Y118.926 E.5669
G1 X200.167 Y119.559 E.02697
G1 X190.132 Y109.525 E.60504
G1 X189.5 Y109.525 E.02696
G1 X200.167 Y120.191 E.64318
G1 X200.167 Y120.824 E.02697
G1 X188.868 Y109.525 E.68131
G1 X188.235 Y109.525 E.02696
G1 X200.167 Y121.456 E.71945
G1 X200.167 Y122.089 E.02697
G1 X187.603 Y109.525 E.75758
G1 X186.97 Y109.525 E.02696
G1 X200.167 Y122.721 E.79572
G1 X200.167 Y123.354 E.02697
G1 X186.338 Y109.525 E.83385
G1 X185.706 Y109.525 E.02696
G1 X200.167 Y123.986 E.87199
G1 X200.167 Y124.618 E.02697
G1 X185.073 Y109.525 E.91013
G1 X184.441 Y109.525 E.02696
G1 X200.167 Y125.251 E.94826
G1 X200.167 Y125.883 E.02697
G1 X183.808 Y109.525 E.9864
G1 X183.176 Y109.525 E.02696
G1 X200.167 Y126.516 E1.02453
G1 X200.167 Y127.148 E.02697
G1 X182.544 Y109.525 E1.06267
G1 X181.911 Y109.525 E.02696
G1 X200.167 Y127.781 E1.10081
G1 X200.167 Y128.413 E.02697
G1 X181.279 Y109.525 E1.13894
M73 P7 R19
G1 X180.646 Y109.525 E.02696
G1 X200.167 Y129.046 E1.17708
G1 X200.167 Y129.678 E.02697
G1 X180.014 Y109.525 E1.21521
G1 X179.381 Y109.525 E.02696
G1 X200.167 Y130.311 E1.25335
M73 P7 R18
G1 X200.168 Y130.943 E.02697
G1 X178.749 Y109.525 E1.29149
G1 X178.117 Y109.525 E.02696
G1 X200.168 Y131.576 E1.32962
G1 X200.168 Y132.208 E.02697
G1 X177.484 Y109.525 E1.36776
G1 X176.852 Y109.525 E.02696
G1 X200.168 Y132.84 E1.40589
G1 X200.168 Y133.473 E.02697
G1 X176.219 Y109.525 E1.44403
G1 X175.587 Y109.525 E.02696
G1 X200.168 Y134.105 E1.48216
G1 X200.168 Y134.738 E.02697
G1 X174.955 Y109.525 E1.5203
G1 X174.322 Y109.525 E.02696
G1 X200.168 Y135.37 E1.55844
G1 X200.168 Y136.003 E.02697
G1 X173.69 Y109.525 E1.59657
G1 X173.057 Y109.525 E.02696
G1 X200.168 Y136.635 E1.63471
G1 X200.168 Y137.268 E.02697
G1 X172.425 Y109.525 E1.67284
G1 X171.793 Y109.525 E.02696
G1 X200.168 Y137.9 E1.71098
G1 X200.168 Y138.533 E.02697
G1 X171.16 Y109.525 E1.74912
G1 X170.528 Y109.525 E.02696
G1 X200.168 Y139.165 E1.78725
G1 X200.168 Y139.798 E.02697
G1 X169.895 Y109.525 E1.82539
M73 P8 R18
G1 X169.263 Y109.525 E.02696
G1 X200.168 Y140.43 E1.86352
G1 X200.168 Y141.062 E.02697
G1 X168.631 Y109.525 E1.90166
G1 X167.998 Y109.525 E.02696
G1 X200.168 Y141.695 E1.9398
G1 X200.168 Y142.327 E.02697
G1 X167.366 Y109.525 E1.97793
G1 X166.733 Y109.525 E.02696
G1 X200.169 Y142.96 E2.01607
G1 X200.169 Y143.592 E.02697
G1 X166.101 Y109.525 E2.0542
G1 X165.468 Y109.525 E.02696
G1 X200.169 Y144.225 E2.09234
