; HEADER_BLOCK_START
; generated by OrcaSlicer 1.7.0 on 2023-10-29 at 17:24:24
; total layer number: 99
; HEADER_BLOCK_END

; THUMBNAIL_BLOCK_START
; THUMBNAIL_BLOCK_END

; external perimeters extrusion width = 0.40mm
; perimeters extrusion width = 0.40mm
; infill extrusion width = 0.50mm
; solid infill extrusion width = 0.40mm
; top infill extrusion width = 0.40mm
; first layer extrusion width = 0.50mm

; EXECUTABLE_BLOCK_START
EXCLUDE_OBJECT_DEFINE NAME=NewLatch-4.0mm.stl_id_0_copy_0 CENTER=175,150 POLYGON=[[161.919,129.2],[161.926,129.079],[161.948,128.961],[161.984,128.845],[162.034,128.735],[162.096,128.632],[162.171,128.537],[162.256,128.451],[162.351,128.377],[162.454,128.315],[162.565,128.265],[162.68,128.229],[162.799,128.207],[162.919,128.2],[184.581,128.2],[184.679,128.205],[184.701,128.207],[184.776,128.219],[184.82,128.229],[184.871,128.243],[184.935,128.265],[184.964,128.276],[185.046,128.315],[185.052,128.318],[185.136,128.369],[185.149,128.377],[185.215,128.427],[185.244,128.451],[185.288,128.493],[185.329,128.537],[185.354,128.566],[185.404,128.632],[185.412,128.644],[185.463,128.729],[185.466,128.735],[187.966,133.635],[188.016,133.745],[188.052,133.861],[188.074,133.979],[188.081,134.1],[188.081,165.9],[188.074,166.021],[188.052,166.139],[188.016,166.255],[187.966,166.365],[185.466,171.265],[185.463,171.271],[185.412,171.356],[185.404,171.368],[185.354,171.434],[185.329,171.463],[185.288,171.507],[185.244,171.549],[185.215,171.573],[185.149,171.623],[185.136,171.631],[185.052,171.682],[185.046,171.685],[184.964,171.724],[184.935,171.735],[184.871,171.757],[184.82,171.771],[184.776,171.781],[184.701,171.793],[184.679,171.795],[184.581,171.8],[162.919,171.8],[162.799,171.793],[162.68,171.771],[162.565,171.735],[162.454,171.685],[162.351,171.623],[162.256,171.549],[162.171,171.463],[162.096,171.368],[162.034,171.265],[161.984,171.155],[161.948,171.039],[161.926,170.921],[161.919,170.8],[161.919,129.2]]
M73 P0 R48
;TYPE:Custom
PRINT_START EXTRUDER=260 BED=110
G90
G21
M83 ; use relative distances for extrusion
; Filament gcode
M106 S0
;LAYER_CHANGE
;Z:0.25
;HEIGHT:0.25
;BEFORE_LAYER_CHANGE
;0.25
G92 E0

G1 E-.8 F1800
;AFTER_LAYER_CHANGE
;0.25
;_SET_FAN_SPEED_CHANGING_LAYER
SET_VELOCITY_LIMIT ACCEL=500 ACCEL_TO_DECEL=250
SET_VELOCITY_LIMIT SQUARE_CORNER_VELOCITY=9
G1 Z.25 F24000
G1 X160.622 Y126.607
G1 Z.25
G1 E.8 F1800
;TYPE:Skirt
;WIDTH:0.5
G1 X161.502 Y125.781 E.05187
G1 X162.214 Y125.361 E.03556
G1 X162.781 Y125.131 E.0263
G1 X164.008 Y124.911 E.05357
G1 X183.492 Y124.911 E.83756
G1 X184.251 Y124.998 E.03285
G1 X184.965 Y125.221 E.03214
G1 X185.7 Y125.585 E.03529
G1 X186.252 Y125.976 E.02906
G1 X186.81 Y126.526 E.03366
G1 X190.761 Y131.804 E.28346
G1 X191.061 Y132.375 E.0277
G1 X191.358 Y133.378 E.04495
G1 X191.42 Y134.1 E.03117
G1 X191.42 Y165.9 E1.367
G1 X191.336 Y166.741 E.03634
G1 X191.061 Y167.625 E.03979
G1 X190.575 Y168.472 E.04199
G1 X186.631 Y173.673 E.28058
G1 X185.575 Y174.488 E.05733
G1 X184.341 Y174.979 E.05711
G1 X183.492 Y175.089 E.0368
G1 X164.008 Y175.089 E.83756
G1 X163.159 Y174.979 E.03681
G1 X162.41 Y174.727 E.03396
G1 X161.253 Y174.027 E.05814
G1 X160.421 Y173.123 E.05283
G1 X159.858 Y171.936 E.05645
G1 X159.702 Y171.02 E.03995
G1 X159.695 Y129.2 E1.79774
G1 X159.759 Y128.485 E.03086
G1 X160.031 Y127.584 E.04044
G1 X160.602 Y126.642 E.04737
G1 X160.966 Y126.892 F24000
G1 F1800
G1 X161.767 Y126.14 E.0472
G1 X162.93 Y125.552 E.05601
G1 X164.008 Y125.357 E.04711
G1 X183.492 Y125.357 E.83756
G1 X184.149 Y125.433 E.02845
G1 X184.804 Y125.637 E.02949
G1 X185.475 Y125.97 E.0322
G1 X185.962 Y126.316 E.02567
G1 X186.466 Y126.811 E.03036
G1 X190.379 Y132.035 E.28061
G1 X190.654 Y132.558 E.02538
G1 X190.919 Y133.458 E.04032
G1 X190.974 Y134.1 E.0277
G1 X190.974 Y165.9 E1.367
G1 X190.897 Y166.661 E.03287
G1 X190.654 Y167.442 E.03517
G1 X190.218 Y168.204 E.03776
G1 X186.311 Y173.362 E.27812
G1 X185.35 Y174.103 E.05218
G1 X184.227 Y174.548 E.05191
G1 X183.492 Y174.643 E.03188
G1 X164.008 Y174.643 E.83756
G1 X163.272 Y174.548 E.03189
G1 X162.579 Y174.314 E.03147
G1 X161.542 Y173.687 E.05207
G1 X160.792 Y172.874 E.04756
G1 X160.288 Y171.816 E.05037
G1 X160.147 Y170.991 E.03601
G1 X160.141 Y129.2 E1.79647
G1 X160.199 Y128.56 E.02761
G1 X160.443 Y127.757 E.0361
G1 X160.946 Y126.926 E.04175
G1 X161.31 Y127.176 F24000
G1 F1800
G1 X162.032 Y126.5 E.04254
G1 X163.078 Y125.973 E.05034
G1 X164.008 Y125.804 E.04064
G1 X183.492 Y125.804 E.83756
G1 X184.048 Y125.868 E.02406
G1 X184.644 Y126.053 E.02683
G1 X185.25 Y126.356 E.02911
G1 X186.123 Y127.095 E.04919
G1 X189.861 Y132.064 E.26727
G1 X190.247 Y132.741 E.03353
G1 X190.48 Y133.538 E.0357
G1 X190.527 Y165.9 E1.39114
G1 X190.458 Y166.58 E.02939
G1 X190.247 Y167.259 E.03054
G1 X189.861 Y167.936 E.03354
G1 X186.123 Y172.905 E.26727
G1 X185.25 Y173.644 E.04919
G1 X184.114 Y174.116 E.05286
G1 X183.492 Y174.196 E.02696
G1 X164.008 Y174.196 E.83756
G1 X163.386 Y174.116 E.02697
G1 X162.747 Y173.901 E.02897
G1 X161.831 Y173.347 E.046
G1 X161.163 Y172.626 E.04228
G1 X160.718 Y171.696 E.04429
G1 X160.593 Y170.961 E.03206
G1 X160.587 Y129.2 E1.79521
G1 X160.639 Y128.636 E.02435
G1 X160.854 Y127.929 E.03175
G1 X161.29 Y127.211 E.03612
; printing object NewLatch-4.0mm.stl id:0 copy 0
G1 E-.8
EXCLUDE_OBJECT_START NAME=NewLatch-4.0mm.stl_id_0_copy_0
G1 Z.45 F24000
G1 X178.3 Y138.864 Z.45
G1 Z.25
G1 E.8 F1800
;TYPE:Inner wall
;WIDTH:0.499999
G1 X178.3 Y145.411 E.28143
G1 X177.744 Y145.421 E.0239
G1 X176.801 Y145.552 E.04094
G1 X176.175 Y145.758 E.02834
G1 X175.576 Y146.058 E.02878
G1 X175.027 Y146.441 E.02878
G1 X174.503 Y146.944 E.03122
G1 X173.946 Y147.709 E.04069
G1 X173.636 Y148.369 E.03133
G1 X173.388 Y149.29 E.04098
G1 X173.336 Y150.004 E.03078
G1 X173.41 Y150.851 E.03655
G1 X173.543 Y151.372 E.02315
G1 X173.789 Y151.995 E.02878
G1 X174.104 Y152.543 E.02716
G1 X172.985 Y152.543 E.04811
G1 X172.254 Y152.573 E.03144
G1 X171.742 Y152.773 E.02365
G1 X171.252 Y153.247 E.02932
G1 X170.502 Y154.388 E.05868
G1 X170.502 Y138.864 E.66734
G1 X178.26 Y138.864 E.33348
G1 X178.746 Y138.418 F24000
G1 F1800
G1 X178.746 Y145.857 E.31981
G1 X177.794 Y145.864 E.04094
G1 X176.93 Y145.98 E.03747
G1 X176.364 Y146.162 E.02556
G1 X175.822 Y146.43 E.02598
G1 X175.325 Y146.773 E.02598
G1 X174.857 Y147.217 E.02773
G1 X174.343 Y147.913 E.0372
G1 X174.064 Y148.497 E.0278
G1 X173.832 Y149.338 E.03751
G1 X173.781 Y149.971 E.0273
G1 X173.863 Y150.833 E.0372
G1 X174.027 Y151.414 E.02596
G1 X174.275 Y151.965 E.02599
G1 X174.6 Y152.475 E.02598
G1 X175.077 Y153.001 E.03052
G1 X172.409 Y152.999 E.11467
G1 X171.975 Y153.153 E.01982
G1 X171.625 Y153.492 E.02095
G1 X170.056 Y155.88 E.12283
G1 X170.056 Y138.418 E.75067
G1 X178.706 Y138.418 E.37185
G1 X179.193 Y137.971 F24000
G1 F1800
G1 X179.193 Y146.304 E.35818
G1 X177.918 Y146.304 E.05478
G1 X177.059 Y146.407 E.03721
G1 X176.554 Y146.567 E.02277
G1 X176.068 Y146.802 E.02319
G1 X175.622 Y147.106 E.02319
G1 X175.21 Y147.49 E.02423
G1 X174.74 Y148.117 E.03371
G1 X174.492 Y148.625 E.02427
G1 X174.276 Y149.387 E.03405
G1 X174.227 Y149.938 E.02382
G1 X174.295 Y150.72 E.03371
G1 X174.438 Y151.239 E.02317
G1 X174.656 Y151.733 E.02319
G1 X174.943 Y152.19 E.02319
G1 X175.312 Y152.616 E.02423
M73 P1 R48
G1 X175.943 Y153.12 E.03472
G1 X176.566 Y153.436 E.03002
G1 X175.736 Y153.436 E.03568
G1 X175.353 Y153.532 E.01697
G1 X175.012 Y153.436 E.01524
G1 X172.557 Y153.436 E.1055
G1 X172.208 Y153.534 E.01561
G1 X171.998 Y153.737 E.01257
G1 X169.61 Y157.372 E.18697
G1 X169.61 Y138.082 E.82923
G1 X169.636 Y137.971 E.00491
G1 X179.153 Y137.971 E.40908
G1 E-.8
G1 Z.45 F24000
G1 X177.963 Y156.544 Z.45
G1 Z.25
G1 E.8 F1800
;WIDTH:0.576068
G1 X178.708 Y155.41 E.0683
G1 X178.708 Y156.544 E.05708
G1 X178.003 Y156.544 E.03549
G1 E-.8
G1 Z.45 F24000
G1 X177.065 Y157.029 Z.45
G1 Z.25
G1 E.8 F1800
;WIDTH:0.499999
G1 X178.742 Y154.472 E.13147
;WIDTH:0.495505
G1 X178.821 Y154.217 E.01135
;WIDTH:0.460997
G1 X178.812 Y153.934 E.01109
G1 X178.475 Y153.677 E.01663
G1 X179.212 Y153.677 E.02891
G1 X179.22 Y154.105 E.0168
;WIDTH:0.495505
G1 X179.195 Y154.607 E.02138
;WIDTH:0.499999
G1 X179.193 Y157.219 E.11229
G1 X179.002 Y157.029 E.01158
G1 X177.105 Y157.029 E.08156
G1 E-.8
G1 Z.45 F24000
G1 X178.689 Y160.31 Z.45
G1 Z.25
G1 E.8 F1800
;WIDTH:0.613592
G1 X178.689 Y161.526 E.06557
G1 X177.89 Y161.526 E.04308
G1 X178.667 Y160.343 E.0763
G1 E-.8
G1 Z.45 F24000
G1 X179.193 Y158.628 Z.45
G1 Z.25
G1 E.8 F1800
;WIDTH:0.499999
G1 X179.193 Y162.029 E.1462
G1 X176.958 Y162.029 E.09606
G1 X179.171 Y158.661 E.17322
G1 E-.8
G1 Z.45 F24000
G1 X173.704 Y162.075 Z.45
G1 Z.25
G1 E.8 F1800
;TYPE:Outer wall
;WIDTH:0.538025
G1 X173.613 Y162.054 E.00436
G1 X173.627 Y161.994 E.00291
;WIDTH:0.493105
G1 X173.641 Y161.933 E.00264
;WIDTH:0.448185
G1 X173.654 Y161.872 E.00237
;WIDTH:0.403265
G1 X173.668 Y161.811 E.0021
;WIDTH:0.358344
G1 X176.426 Y157.615 E.14736
;WIDTH:0.39854
G1 X176.468 Y157.572 E.00201
;WIDTH:0.438735
G1 X176.511 Y157.529 E.00224
;WIDTH:0.47893
G1 X176.553 Y157.486 E.00247
;WIDTH:0.499999
G1 X179.002 Y157.475 E.10528
G1 X179.215 Y157.736 E.01448
;WIDTH:0.492977
G1 X179.186 Y157.819 E.00374
;WIDTH:0.499999
G1 X176.43 Y162.017 E.21586
;WIDTH:0.498004
G1 X176.245 Y162.096 E.00863
;WIDTH:0.455289
G1 X173.796 Y162.096 E.09473
;WIDTH:0.496657
G1 X173.743 Y162.084 E.00228
G1 E-.8
G1 Z.45 F24000
G1 X170.094 Y160.59 Z.45
G1 Z.25
G1 E.8 F1800
;TYPE:Inner wall
;WIDTH:0.576067
G1 X170.094 Y159.456 E.05708
G1 X170.839 Y159.456 E.0375
G1 X170.116 Y160.557 E.06628
G1 X170.751 Y160.473 F24000
;WIDTH:0.499999
G1 F1800
G1 X170.058 Y161.527 E.05424
G1 X169.948 Y161.866 E.01532
G1 X170.104 Y162.029 E.00966
G1 X169.648 Y162.029 E.01959
G1 X169.61 Y161.951 E.00375
G1 X169.61 Y158.811 E.13494
G1 X169.8 Y158.971 E.01069
G1 X171.737 Y158.971 E.08327
G1 X170.773 Y160.439 E.07551
G1 E-.8
G1 Z.45 F24000
G1 X175.152 Y154.121 Z.45
G1 Z.25
G1 E.8 F1800
;TYPE:Outer wall
;WIDTH:0.402151
G1 X175.134 Y154.189 E.00236
;WIDTH:0.358344
G1 X172.376 Y158.385 E.14736
;WIDTH:0.39854
G1 X172.334 Y158.428 E.00201
;WIDTH:0.438735
G1 X172.291 Y158.471 E.00224
;WIDTH:0.47893
G1 X172.249 Y158.514 E.00247
;WIDTH:0.499999
G1 X169.8 Y158.525 E.10528
G1 X169.585 Y158.302 E.01332
;WIDTH:0.494275
G1 X169.616 Y158.181 E.0053
;WIDTH:0.499999
G1 X172.371 Y153.983 E.21586
G1 X172.528 Y153.884 E.00797
G1 X175.008 Y153.882 E.10663
G1 X175.122 Y153.914 E.00508
G1 X175.189 Y153.985 E.0042
;WIDTH:0.489765
G1 X175.17 Y154.053 E.00295
;WIDTH:0.445958
G1 X175.163 Y154.082 E.00114
G1 E-.8
G1 Z.45 F24000
G1 X178.292 Y153.941 Z.45
G1 Z.25
G1 E.8 F1800
;WIDTH:0.546394
G1 X178.4 Y154.046 E.00715
;WIDTH:0.499999
G1 X178.371 Y154.228 E.00789
G1 X176.402 Y157.206 E.15347
;WIDTH:0.47893
G1 X176.325 Y157.286 E.00456
;WIDTH:0.438735
G1 X176.248 Y157.367 E.00413
;WIDTH:0.39854
G1 X176.171 Y157.447 E.0037
;WIDTH:0.358344
G1 X173.414 Y161.644 E.14736
;WIDTH:0.403265
G1 X173.372 Y161.747 E.00372
;WIDTH:0.448185
G1 X173.331 Y161.849 E.0042
;WIDTH:0.493105
G1 X173.29 Y161.952 E.00468
;WIDTH:0.538025
G1 X173.249 Y162.054 E.00516
G1 X173.158 Y162.075 E.00436
;WIDTH:0.496657
G1 X173.066 Y162.096 E.00399
;WIDTH:0.455289
G1 X170.617 Y162.096 E.09473
;WIDTH:0.499999
G1 X170.394 Y161.885 E.01318
G1 X170.431 Y161.772 E.00511
G1 X172.4 Y158.794 E.15347
;WIDTH:0.47893
G1 X172.477 Y158.714 E.00456
;WIDTH:0.438735
G1 X172.554 Y158.633 E.00413
;WIDTH:0.39854
G1 X172.631 Y158.553 E.0037
;WIDTH:0.358344
G1 X175.389 Y154.356 E.14736
;WIDTH:0.405563
G1 X175.466 Y154.209 E.00564
;WIDTH:0.452781
G1 X175.543 Y154.061 E.00639
;WIDTH:0.499999
G1 X175.62 Y153.914 E.00715
G1 X175.866 Y153.882 E.01067
G1 X176.674 Y153.882 E.0347
;WIDTH:0.539343
G1 X176.894 Y153.862 E.01037
;WIDTH:0.578686
G1 X177.115 Y153.843 E.01121
;WIDTH:0.618029
G1 X177.336 Y153.823 E.01205
G1 X177.879 Y153.835 E.0295
;WIDTH:0.593509
G1 X178.185 Y153.836 E.01591
;WIDTH:0.592789
G1 X178.264 Y153.913 E.00575
G1 E-.8
G1 Z.45 F24000
G1 X179.639 Y137.525 Z.45
G1 Z.25
G1 E.8 F1800
;WIDTH:0.499999
G1 X179.639 Y146.75 E.39656
G1 X177.918 Y146.75 E.07397
G1 X177.227 Y146.826 E.02988
G1 X176.773 Y146.959 E.02033
G1 X176.359 Y147.151 E.01962
G1 X175.946 Y147.418 E.02115
G1 X175.563 Y147.763 E.02214
G1 X175.159 Y148.287 E.02848
G1 X174.919 Y148.752 E.02248
G1 X174.727 Y149.395 E.02885
G1 X174.672 Y149.906 E.02207
G1 X174.72 Y150.567 E.02848
G1 X174.818 Y150.955 E.01721
G1 X175.022 Y151.471 E.02387
G1 X175.267 Y151.877 E.02039
G1 X175.597 Y152.272 E.02214
G1 X176.147 Y152.723 E.03055
G1 X176.781 Y153.043 E.03055
;WIDTH:0.536535
G1 X177.007 Y153.119 E.01108
;WIDTH:0.573071
G1 X177.233 Y153.196 E.01192
;WIDTH:0.609606
G1 X177.459 Y153.272 E.01276
G1 X178.185 Y153.296 E.0389
;WIDTH:0.592789
G1 X178.597 Y153.273 E.02142
;WIDTH:0.546394
G1 X179.008 Y153.25 E.01957
;WIDTH:0.499999
G1 X179.639 Y153.25 E.0271
G1 X179.639 Y162.475 E.39656
G1 X176.678 Y162.476 E.12728
;WIDTH:0.498004
G1 X176.245 Y162.497 E.01857
;WIDTH:0.455289
G1 X173.796 Y162.497 E.09473
;WIDTH:0.496657
G1 X173.613 Y162.477 E.00783
;WIDTH:0.538025
G1 X173.431 Y162.456 E.00856
G1 X173.249 Y162.477 E.00856
;WIDTH:0.496657
G1 X173.066 Y162.497 E.00783
;WIDTH:0.455289
G1 X170.617 Y162.497 E.09473
;WIDTH:0.499999
G1 X169.446 Y162.475 E.05038
G1 X169.371 Y162.411 E.00421
G1 X169.234 Y162.203 E.01074
G1 X169.163 Y161.982 E.00995
G1 X169.163 Y138.082 E1.02739
G1 X169.163 Y138.025 E.00249
G1 X169.256 Y137.738 E.01293
G1 X169.446 Y137.525 E.01228
G1 X179.599 Y137.525 E.43646
G1 E-.8
G1 Z.45 F24000
G1 X177.26 Y138.976 Z.45
G1 Z.25
G1 E.8 F1800
;TYPE:Bottom surface
;WIDTH:0.512432
G1 F3600
G1 X177.987 Y139.703 E.04502
G1 X177.987 Y140.352 E.02838
G1 X176.812 Y139.176 E.07273
G1 X176.163 Y139.176 E.02838
G1 X177.987 Y141.001 E.11287
G1 X177.987 Y141.65 E.02838
G1 X175.514 Y139.176 E.15301
G1 X174.865 Y139.176 E.02838
G1 X177.987 Y142.299 E.19314
M73 P1 R47
G1 X177.987 Y142.947 E.02838
G1 X174.216 Y139.176 E.23328
G1 X173.568 Y139.176 E.02838
G1 X177.987 Y143.596 E.27342
G1 X177.987 Y144.245 E.02838
G1 X172.919 Y139.176 E.31355
G1 X172.27 Y139.176 E.02838
G1 X177.987 Y144.894 E.35369
G1 X177.987 Y145.101 E.00907
G1 X177.57 Y145.126 E.01827
G1 X171.621 Y139.176 E.36803
G1 X170.972 Y139.176 E.02838
G1 X176.991 Y145.195 E.37233
G1 X176.714 Y145.252 E.0124
G1 X176.477 Y145.33 E.01089
G1 X170.815 Y139.668 E.35027
G1 X170.815 Y140.316 E.02838
G1 X175.996 Y145.497 E.3205
G1 X175.562 Y145.712 E.02118
G1 X170.815 Y140.965 E.29366
G1 X170.815 Y141.614 E.02838
G1 X175.162 Y145.961 E.26894
G1 X175.031 Y146.043 E.00674
G1 X174.795 Y146.243 E.01355
G1 X170.815 Y142.263 E.24624
G1 X170.815 Y142.912 E.02838
G1 X174.449 Y146.546 E.22481
G1 X174.148 Y146.894 E.02012
G1 X170.815 Y143.56 E.2062
G1 X170.815 Y144.209 E.02838
G1 X173.865 Y147.26 E.18872
G1 X173.619 Y147.662 E.02064
G1 X170.815 Y144.858 E.17347
G1 X170.815 Y145.507 E.02838
G1 X173.409 Y148.101 E.16047
G1 X173.245 Y148.587 E.02241
G1 X170.815 Y146.156 E.15037
G1 X170.815 Y146.805 E.02838
G1 X173.109 Y149.099 E.14193
G1 X173.078 Y149.252 E.00685
G1 X173.039 Y149.677 E.01867
G1 X170.815 Y147.453 E.13759
G1 X170.815 Y148.102 E.02838
G1 X173.054 Y150.342 E.13856
G1 X173.096 Y150.873 E.0233
G1 X173.149 Y151.085 E.00956
G1 X170.815 Y148.751 E.1444
G1 X170.815 Y149.4 E.02838
G1 X173.496 Y152.081 E.16589
G1 X173.562 Y152.227 E.00699
G1 X172.995 Y152.229 E.0248
G1 X170.815 Y150.049 E.13489
G1 X170.815 Y150.697 E.02838
G1 X172.361 Y152.243 E.09564
G1 X172.187 Y152.267 E.00765
G1 X171.862 Y152.394 E.01526
G1 X170.815 Y151.346 E.06481
G1 X170.815 Y151.995 E.02838
G1 X171.449 Y152.629 E.03923
G1 X171.119 Y152.948 E.02007
G1 X170.614 Y152.443 E.03126
G1 E-.8 F1800
G1 Z.45 F24000
G1 X184.124 Y163.29 Z.45
G1 Z.25
G1 E.8 F1800
;TYPE:Inner wall
;WIDTH:0.499999
G1 X184.252 Y162.974 E.01463
G1 X184.334 Y162.403 E.02483
G1 X184.334 Y137.598 E1.06627
G1 X184.281 Y137.198 E.01736
G1 X184.072 Y136.532 E.03001
G1 X183.847 Y136.195 E.01743
G1 X183.565 Y135.873 E.01838
G1 X183.124 Y135.525 E.02416
G1 X182.7 Y135.299 E.02064
G1 X182.294 Y135.151 E.0186
G1 X181.902 Y135.099 E.01698
;WIDTH:0.470642
G1 X181.511 Y135.048 E.01586
;WIDTH:0.441285
