; HEADER_BLOCK_START
; generated by OrcaSlicer 1.7.0 on 2023-12-24 at 13:18:11
; total layer number: 50
; HEADER_BLOCK_END

; THUMBNAIL_BLOCK_START
; THUMBNAIL_BLOCK_END

; external perimeters extrusion width = 0.40mm
; perimeters extrusion width = 0.40mm
; infill extrusion width = 0.50mm
; solid infill extrusion width = 0.40mm
; top infill extrusion width = 0.40mm
; first layer extrusion width = 0.50mm

; EXECUTABLE_BLOCK_START
EXCLUDE_OBJECT_DEFINE NAME=Body1_3.stl_id_0_copy_0 CENTER=175,150 POLYGON=[[123.527,149.991],[123.599,148.133],[123.815,146.285],[124.173,144.46],[124.672,142.669],[125.308,140.921],[126.078,139.228],[126.976,137.6],[127.998,136.046],[129.138,134.576],[130.387,133.198],[131.74,131.922],[133.188,130.754],[134.721,129.703],[136.332,128.773],[138.01,127.97],[139.745,127.3],[141.527,126.767],[143.344,126.373],[145.187,126.122],[147.044,126.014],[147.509,126.009],[202.509,126.009],[204.345,126.079],[206.17,126.29],[207.973,126.64],[209.745,127.127],[211.474,127.748],[213.15,128.499],[214.764,129.377],[216.306,130.375],[217.767,131.489],[219.139,132.711],[220.413,134.035],[221.582,135.453],[222.638,136.955],[223.577,138.534],[224.392,140.181],[225.079,141.885],[225.634,143.636],[226.052,145.425],[226.333,147.241],[226.473,149.072],[226.473,150.91],[226.333,152.741],[226.052,154.557],[225.634,156.346],[225.079,158.097],[224.392,159.801],[223.577,161.448],[222.638,163.027],[221.582,164.529],[220.413,165.947],[219.139,167.271],[217.767,168.493],[216.306,169.607],[214.764,170.605],[213.15,171.483],[211.474,172.234],[209.745,172.855],[207.973,173.342],[206.17,173.692],[204.345,173.903],[202.509,173.973],[177.159,173.991],[172.859,173.991],[147.509,173.973],[147.044,173.968],[145.187,173.86],[143.344,173.609],[141.527,173.215],[139.745,172.682],[138.01,172.012],[136.332,171.209],[134.721,170.279],[133.188,169.228],[131.74,168.06],[130.387,166.784],[129.138,165.406],[127.998,163.936],[126.976,162.382],[126.078,160.754],[125.308,159.061],[124.672,157.313],[124.173,155.522],[123.815,153.697],[123.599,151.849],[123.527,149.991]]
M73 P0 R60
;TYPE:Custom
PRINT_START EXTRUDER=260 BED=110
G90
G21
M83 ; use relative distances for extrusion
; Filament gcode
M106 S0
;LAYER_CHANGE
;Z:0.25
;HEIGHT:0.25
;BEFORE_LAYER_CHANGE
;0.25
G92 E0

G1 E-.8 F1800
;AFTER_LAYER_CHANGE
;0.25
;_SET_FAN_SPEED_CHANGING_LAYER
SET_VELOCITY_LIMIT ACCEL=1000 ACCEL_TO_DECEL=500
SET_VELOCITY_LIMIT SQUARE_CORNER_VELOCITY=9
G1 Z.25 F24000
G1 X130.367 Y132.997
G1 Z.25
G1 E.8 F1800
;TYPE:Skirt
;WIDTH:0.5
G1 X131.735 Y131.72 E.08047
G1 X133.199 Y130.552 E.08047
G1 X134.529 Y129.64 E.06934
G1 X136.374 Y128.575 E.09159
G1 X138.067 Y127.776 E.08047
G1 X139.572 Y127.195 E.06934
G1 X141.363 Y126.649 E.08047
G1 X143.19 Y126.243 E.08047
G1 X145.043 Y125.979 E.08047
G1 X147.073 Y125.855 E.08742
G1 X202.637 Y125.853 E2.38854
G1 X204.484 Y125.934 E.07949
G1 X206.32 Y126.156 E.07949
G1 X207.884 Y126.459 E.0685
G1 X209.67 Y126.94 E.07949
G1 X211.413 Y127.556 E.07949
G1 X213.104 Y128.303 E.07949
G1 X214.734 Y129.178 E.07949
G1 X216.5 Y130.322 E.09047
G1 X217.965 Y131.451 E.07949
G1 X219.339 Y132.688 E.07949
G1 X220.614 Y134.027 E.07949
G1 X221.783 Y135.46 E.07949
G1 X222.839 Y136.978 E.07949
G1 X224.084 Y139.197 E.10938
G1 X225.182 Y141.712 E.11797
G1 X225.75 Y143.472 E.07949
G1 X226.18 Y145.27 E.07949
G1 X226.472 Y147.096 E.07949
G1 X226.624 Y148.939 E.07949
G1 X226.624 Y151.043 E.09047
G1 X226.472 Y152.886 E.07949
G1 X226.18 Y154.712 E.07949
G1 X225.75 Y156.51 E.07949
G1 X224.922 Y158.917 E.10938
G1 X223.775 Y161.41 E.11797
G1 X222.839 Y163.004 E.07949
G1 X221.628 Y164.725 E.09047
G1 X220.444 Y166.146 E.07949
G1 X219.154 Y167.471 E.07949
G1 X217.767 Y168.694 E.07949
G1 X216.291 Y169.807 E.07949
G1 X214.953 Y170.674 E.0685
G1 X213.334 Y171.565 E.07949
G1 X211.65 Y172.331 E.07949
G1 X209.914 Y172.965 E.07949
G1 X207.884 Y173.523 E.09047
G1 X206.067 Y173.865 E.07949
G1 X204.229 Y174.067 E.07949
G1 X202.637 Y174.129 E.0685
G1 X147.476 Y174.131 E2.3712
G1 X145.301 Y174.028 E.09363
G1 X143.445 Y173.784 E.08047
G1 X141.613 Y173.398 E.08047
G1 X139.817 Y172.871 E.08047
G1 X137.83 Y172.103 E.09159
G1 X136.374 Y171.407 E.06934
G1 X134.748 Y170.48 E.08047
G1 X132.991 Y169.275 E.09159
G1 X131.735 Y168.262 E.06934
G1 X130.367 Y166.985 E.08047
G1 X129.102 Y165.605 E.08047
G1 X127.947 Y164.132 E.08047
G1 X126.776 Y162.352 E.09159
G1 X125.997 Y160.94 E.06934
G1 X125.213 Y159.24 E.08047
G1 X124.563 Y157.484 E.08047
G1 X123.992 Y155.432 E.09159
G1 X123.641 Y153.593 E.08047
G1 X123.454 Y151.991 E.06934
G1 X123.371 Y150.12 E.08047
G1 X123.454 Y147.991 E.09159
G1 X123.681 Y146.133 E.08047
G1 X123.992 Y144.55 E.06934
G1 X124.484 Y142.745 E.08047
G1 X125.115 Y140.982 E.08047
G1 X125.881 Y139.274 E.08047
G1 X126.91 Y137.408 E.09159
G1 X127.796 Y136.061 E.06934
G1 X128.935 Y134.575 E.08047
G1 X130.34 Y133.027 E.08987
G1 X130.668 Y133.327 F24000
G1 F1800
G1 X130.673 Y133.322 E.00032
G1 X132.016 Y132.067 E.07898
G1 X133.271 Y131.055 E.06934
G1 X134.782 Y130.008 E.07898
G1 X136.567 Y128.977 E.08862
G1 X138.228 Y128.193 E.07898
G1 X139.945 Y127.539 E.07898
G1 X141.491 Y127.076 E.06934
G1 X143.284 Y126.679 E.07898
G1 X145.104 Y126.422 E.07898
G1 X147.077 Y126.301 E.08501
G1 X202.62 Y126.3 E2.38762
G1 X204.433 Y126.378 E.07802
G1 X206.235 Y126.594 E.07802
G1 X208.015 Y126.948 E.07802
G1 X209.763 Y127.437 E.07802
G1 X211.468 Y128.059 E.07802
G1 X213.12 Y128.809 E.07802
G1 X214.52 Y129.57 E.0685
G1 X216.048 Y130.549 E.07802
G1 X217.497 Y131.643 E.07802
G1 X218.857 Y132.844 E.07802
G1 X220.122 Y134.146 E.07802
G1 X221.418 Y135.717 E.08754
G1 X222.455 Y137.206 E.07802
G1 X223.684 Y139.395 E.10791
G1 X224.768 Y141.879 E.1165
G1 X225.324 Y143.606 E.07802
G1 X225.746 Y145.372 E.07802
G1 X226.031 Y147.164 E.07802
G1 X226.187 Y149.194 E.08754
G1 X226.179 Y151.009 E.07802
G1 X226.031 Y152.818 E.07802
G1 X225.746 Y154.61 E.07802
G1 X225.324 Y156.376 E.07802
G1 X224.508 Y158.75 E.10791
G1 X223.375 Y161.212 E.1165
G1 X222.455 Y162.776 E.07802
G1 X221.418 Y164.265 E.07802
G1 X220.122 Y165.836 E.08754
G1 X218.857 Y167.138 E.07802
G1 X217.497 Y168.339 E.07802
G1 X216.23 Y169.305 E.0685
G1 X214.711 Y170.299 E.07802
G1 X213.12 Y171.173 E.07802
G1 X211.468 Y171.924 E.07802
G1 X209.763 Y172.545 E.07802
G1 X207.799 Y173.085 E.08754
G1 X206.016 Y173.422 E.07802
G1 X204.212 Y173.621 E.07802
G1 X202.62 Y173.682 E.0685
G1 X147.481 Y173.684 E2.37028
G1 X145.327 Y173.582 E.0927
G1 X143.505 Y173.342 E.07898
G1 X141.491 Y172.906 E.08862
G1 X139.733 Y172.37 E.07898
G1 X138.228 Y171.789 E.06934
G1 X136.567 Y171.005 E.07898
G1 X134.971 Y170.093 E.07898
G1 X133.271 Y168.927 E.08862
G1 X131.847 Y167.767 E.07898
G1 X130.516 Y166.5 E.07898
G1 X129.288 Y165.134 E.07898
G1 X128.3 Y163.859 E.06934
G1 X127.167 Y162.136 E.08862
G1 X126.287 Y160.523 E.07898
G1 X125.619 Y159.055 E.06934
G1 X124.914 Y157.118 E.08862
G1 X124.43 Y155.345 E.07898
G1 X124.085 Y153.541 E.07898
G1 X123.88 Y151.715 E.07898
G1 X123.817 Y150.103 E.06934
G1 X123.897 Y148.043 E.08862
G1 X124.119 Y146.219 E.07898
G1 X124.482 Y144.418 E.07898
G1 X124.914 Y142.864 E.06934
G1 X125.619 Y140.927 E.08862
G1 X126.728 Y138.64 E.10925
G1 X128.169 Y136.306 E.11793
G1 X129.432 Y134.677 E.08862
G1 X130.641 Y133.357 E.07694
G1 X130.971 Y133.656 F24000
G1 F1800
G1 X130.98 Y133.646 E.00056
G1 X132.296 Y132.415 E.07749
G1 X133.552 Y131.402 E.06934
G1 X135.034 Y130.376 E.07749
G1 X136.591 Y129.469 E.07749
G1 X138.389 Y128.609 E.08564
G1 X140.073 Y127.967 E.07749
G1 X141.619 Y127.504 E.06934
M73 P0 R59
G1 X143.379 Y127.115 E.07749
G1 X145.164 Y126.864 E.07749
G1 X147.082 Y126.748 E.08259
G1 X202.603 Y126.746 E2.3867
G1 X204.382 Y126.821 E.07655
G1 X206.15 Y127.032 E.07655
G1 X207.714 Y127.336 E.0685
G1 X209.433 Y127.801 E.07655
G1 X211.111 Y128.396 E.07655
G1 X212.739 Y129.118 E.07655
G1 X214.307 Y129.962 E.07655
G1 X215.959 Y131.032 E.0846
G1 X217.371 Y132.117 E.07655
G1 X218.695 Y133.307 E.07655
G1 X219.8 Y134.455 E.0685
G1 X220.939 Y135.824 E.07655
G1 X221.969 Y137.277 E.07655
G1 X222.885 Y138.804 E.07655
G1 X223.682 Y140.397 E.07655
G1 X224.354 Y142.045 E.07655
G1 X224.898 Y143.741 E.07655
G1 X225.347 Y145.657 E.0846
G1 X225.612 Y147.418 E.07655
G1 X225.741 Y149.194 E.07655
G1 X225.741 Y150.788 E.0685
G1 X225.612 Y152.564 E.07655
G1 X225.347 Y154.325 E.07655
G1 X224.948 Y156.06 E.07655
G1 X224.418 Y157.76 E.07655
G1 X223.759 Y159.415 E.07655
G1 X222.885 Y161.178 E.0846
G1 X221.969 Y162.705 E.07655
G1 X220.939 Y164.158 E.07655
G1 X219.317 Y166.029 E.10645
G1 X217.371 Y167.865 E.11503
G1 X215.959 Y168.95 E.07655
G1 X214.468 Y169.924 E.07655
G1 X212.907 Y170.781 E.07655
G1 X211.285 Y171.516 E.07655
G1 X209.612 Y172.125 E.07655
G1 X207.714 Y172.646 E.0846
G1 X205.965 Y172.978 E.07655
G1 X204.382 Y173.161 E.0685
G1 X202.603 Y173.236 E.07655
G1 X147.485 Y173.238 E2.36935
G1 X145.353 Y173.136 E.09177
G1 X143.566 Y172.9 E.07749
G1 X141.619 Y172.478 E.08564
G1 X140.073 Y172.015 E.06934
G1 X138.389 Y171.373 E.07749
G1 X136.759 Y170.602 E.07749
G1 X135.194 Y169.707 E.07749
G1 X133.552 Y168.58 E.08564
G1 X132.296 Y167.567 E.06934
G1 X130.98 Y166.336 E.07749
G1 X129.763 Y165.006 E.07749
G1 X128.653 Y163.585 E.07749
G1 X127.558 Y161.921 E.08564
G1 X126.693 Y160.339 E.07749
G1 X126.026 Y158.87 E.06934
G1 X125.344 Y156.998 E.08564
G1 X124.868 Y155.259 E.07749
G1 X124.528 Y153.489 E.0775
G1 X124.341 Y151.887 E.06934
G1 X124.263 Y150.086 E.07749
G1 X124.341 Y148.095 E.08564
G1 X124.557 Y146.305 E.07749
G1 X124.912 Y144.538 E.07749
G1 X125.344 Y142.984 E.06934
G1 X125.954 Y141.287 E.07749
G1 X126.779 Y139.474 E.08564
G1 X127.656 Y137.899 E.07749
G1 X128.542 Y136.551 E.06934
G1 X129.641 Y135.122 E.07749
G1 X130.944 Y133.686 E.08337
; printing object Body1 3.stl id:0 copy 0
G1 E-.8
EXCLUDE_OBJECT_START NAME=Body1_3.stl_id_0_copy_0
G1 Z.45 F24000
G1 X203.99 Y130.697 Z.45
G1 Z.25
G1 E.8 F1800
;TYPE:Inner wall
;WIDTH:0.499999
G1 X205.463 Y130.867 E.06373
G1 X206.918 Y131.149 E.06372
G1 X208.347 Y131.542 E.06372
G1 X209.743 Y132.043 E.06373
G1 X211.095 Y132.649 E.06372
G1 X212.398 Y133.357 E.06373
G1 X213.642 Y134.163 E.06372
G1 X214.821 Y135.062 E.06372
G1 X215.928 Y136.048 E.06373
G1 X216.956 Y137.116 E.06372
G1 X217.899 Y138.26 E.06373
G1 X218.752 Y139.472 E.06372
G1 X219.509 Y140.747 E.06373
G1 X220.167 Y142.075 E.06372
G1 X220.721 Y143.45 E.06373
M73 P1 R59
G1 X221.168 Y144.863 E.06372
G1 X221.506 Y146.307 E.06372
G1 X221.732 Y147.772 E.06373
G1 X221.846 Y149.25 E.06372
G1 X221.846 Y150.732 E.06373
G1 X221.732 Y152.21 E.06372
G1 X221.506 Y153.675 E.06373
G1 X221.168 Y155.119 E.06372
G1 X220.721 Y156.532 E.06372
G1 X220.167 Y157.907 E.06373
G1 X219.509 Y159.235 E.06372
G1 X218.752 Y160.51 E.06373
G1 X217.899 Y161.722 E.06372
G1 X216.956 Y162.866 E.06373
G1 X215.928 Y163.934 E.06372
G1 X214.821 Y164.92 E.06373
G1 X213.642 Y165.819 E.06372
G1 X212.398 Y166.625 E.06372
G1 X211.095 Y167.333 E.06373
G1 X209.743 Y167.939 E.06372
G1 X208.347 Y168.44 E.06373
G1 X206.918 Y168.833 E.06372
G1 X205.463 Y169.115 E.06372
G1 X203.99 Y169.285 E.06373
G1 X202.495 Y169.343 E.0643
G1 X147.14 Y169.339 E2.37957
G1 X145.635 Y169.251 E.06481
G1 X144.148 Y169.048 E.06451
G1 X142.682 Y168.731 E.06451
G1 X141.244 Y168.3 E.06451
G1 X139.844 Y167.76 E.06451
G1 X138.49 Y167.112 E.06451
G1 X137.191 Y166.362 E.06451
G1 X135.953 Y165.513 E.06451
G1 X134.785 Y164.571 E.06451
G1 X133.693 Y163.541 E.06451
G1 X132.685 Y162.43 E.06451
G1 X131.766 Y161.244 E.06451
G1 X130.941 Y159.99 E.06451
G1 X130.216 Y158.676 E.06451
G1 X129.595 Y157.31 E.06451
G1 X129.082 Y155.899 E.06451
G1 X128.679 Y154.454 E.06451
G1 X128.39 Y152.981 E.06451
G1 X128.216 Y151.491 E.06451
G1 X128.158 Y149.991 E.06451
G1 X128.216 Y148.491 E.06451
G1 X128.39 Y147.001 E.06451
G1 X128.679 Y145.528 E.06451
G1 X129.082 Y144.083 E.06451
G1 X129.595 Y142.672 E.06451
G1 X130.216 Y141.306 E.06451
G1 X130.941 Y139.992 E.06451
G1 X131.766 Y138.738 E.06451
G1 X132.685 Y137.552 E.06451
G1 X133.693 Y136.441 E.06451
G1 X134.785 Y135.411 E.06451
G1 X135.953 Y134.469 E.06451
G1 X137.191 Y133.62 E.06451
G1 X138.49 Y132.87 E.06451
G1 X139.844 Y132.222 E.06451
G1 X141.244 Y131.682 E.06451
G1 X142.682 Y131.251 E.06451
G1 X144.148 Y130.934 E.06451
G1 X145.635 Y130.731 E.06451
G1 X147.14 Y130.643 E.0648
G1 X202.495 Y130.639 E2.37957
G1 X203.95 Y130.695 E.06258
G1 X204.024 Y130.251 F24000
;TYPE:Outer wall
G1 F1800
G1 X205.531 Y130.425 E.0652
G1 X207.02 Y130.714 E.0652
G1 X208.482 Y131.116 E.0652
G1 X209.91 Y131.628 E.0652
G1 X211.293 Y132.249 E.06519
G1 X212.626 Y132.973 E.0652
G1 X213.899 Y133.798 E.06519
G1 X215.105 Y134.717 E.06519
G1 X216.237 Y135.726 E.0652
G1 X217.289 Y136.819 E.0652
G1 X218.254 Y137.989 E.0652
G1 X219.126 Y139.229 E.06519
G1 X219.902 Y140.533 E.0652
G1 X220.574 Y141.892 E.06519
G1 X221.141 Y143.299 E.0652
G1 X221.599 Y144.745 E.0652
G1 X221.945 Y146.222 E.06519
G1 X222.176 Y147.721 E.0652
G1 X222.292 Y149.233 E.06519
G1 X222.292 Y150.749 E.0652
G1 X222.176 Y152.261 E.06519
G1 X221.945 Y153.76 E.0652
G1 X221.599 Y155.237 E.0652
G1 X221.141 Y156.683 E.06519
G1 X220.574 Y158.09 E.0652
G1 X219.902 Y159.449 E.06519
G1 X219.126 Y160.752 E.0652
G1 X218.254 Y161.993 E.0652
G1 X217.289 Y163.163 E.0652
G1 X216.237 Y164.256 E.0652
G1 X215.105 Y165.265 E.0652
G1 X213.899 Y166.184 E.06519
G1 X212.626 Y167.009 E.0652
G1 X211.293 Y167.733 E.0652
G1 X209.91 Y168.354 E.06519
G1 X208.482 Y168.866 E.0652
G1 X207.02 Y169.268 E.0652
G1 X205.531 Y169.557 E.0652
G1 X204.024 Y169.731 E.0652
G1 X202.504 Y169.789 E.0654
G1 X147.127 Y169.785 E2.38049
G1 X145.592 Y169.696 E.06611
G1 X144.071 Y169.488 E.066
G1 X142.57 Y169.163 E.066
G1 X141.1 Y168.723 E.066
G1 X139.667 Y168.17 E.066
G1 X138.282 Y167.507 E.066
G1 X136.952 Y166.74 E.066
G1 X135.686 Y165.871 E.066
G1 X134.491 Y164.907 E.066
G1 X133.374 Y163.854 E.066
G1 X132.343 Y162.717 E.066
G1 X131.402 Y161.503 E.066
G1 X130.558 Y160.221 E.066
G1 X129.817 Y158.876 E.066
G1 X129.181 Y157.479 E.066
G1 X128.656 Y156.036 E.066
G1 X128.245 Y154.557 E.066
G1 X127.949 Y153.05 E.066
G1 X127.77 Y151.525 E.066
G1 X127.711 Y149.991 E.066
G1 X127.77 Y148.457 E.066
G1 X127.949 Y146.932 E.066
G1 X128.245 Y145.425 E.066
G1 X128.656 Y143.946 E.066
G1 X129.181 Y142.503 E.066
G1 X129.817 Y141.106 E.066
G1 X130.558 Y139.761 E.066
G1 X131.402 Y138.479 E.066
G1 X132.343 Y137.265 E.066
G1 X133.374 Y136.128 E.066
G1 X134.491 Y135.075 E.066
G1 X135.686 Y134.111 E.066
G1 X136.952 Y133.242 E.066
G1 X138.282 Y132.475 E.066
G1 X139.667 Y131.812 E.066
G1 X141.1 Y131.259 E.066
G1 X142.57 Y130.819 E.066
G1 X144.071 Y130.494 E.066
G1 X145.592 Y130.286 E.066
G1 X147.127 Y130.197 E.06611
G1 X202.504 Y130.193 E2.3805
G1 X203.984 Y130.25 E.06368
G1 E-.8
G1 Z.45 F24000
G1 X128.933 Y149.742 Z.45
G1 Z.25
G1 E.8 F1800
;TYPE:Inner wall
G1 X128.981 Y148.525 E.05238
G1 X129.15 Y147.093 E.06196
G1 X129.418 Y145.73 E.05973
G1 X129.802 Y144.341 E.06196
G1 X130.293 Y142.986 E.06196
G1 X130.888 Y141.673 E.06196
G1 X131.609 Y140.365 E.06419
G1 X132.373 Y139.204 E.05973
G1 X133.254 Y138.064 E.06196
G1 X134.221 Y136.995 E.06196
G1 X135.269 Y136.005 E.06196
G1 X136.431 Y135.067 E.06419
G1 X137.577 Y134.281 E.05973
G1 X138.824 Y133.559 E.06196
G1 X140.123 Y132.935 E.06196
G1 X141.516 Y132.397 E.06419
G1 X142.898 Y131.986 E.06196
G1 X144.307 Y131.683 E.06196
G1 X145.684 Y131.495 E.05973
G1 X147.161 Y131.408 E.06362
G1 X202.509 Y131.404 E2.37928
G1 X203.906 Y131.458 E.06008
G1 X205.321 Y131.619 E.06121
G1 X206.769 Y131.9 E.06341
G1 X208.141 Y132.279 E.0612
G1 X209.48 Y132.762 E.06121
G1 X210.733 Y133.323 E.059
G1 X211.904 Y133.958 E.05728
G1 X213.181 Y134.774 E.06512
G1 X214.314 Y135.636 E.06121
G1 X215.378 Y136.582 E.06121
G1 X216.367 Y137.606 E.06121
G1 X217.275 Y138.703 E.06121
G1 X218.095 Y139.867 E.06121
G1 X218.825 Y141.09 E.06121
G1 X219.458 Y142.365 E.0612
G1 X219.992 Y143.684 E.06121
G1 X220.424 Y145.041 E.0612
G1 X220.729 Y146.338 E.05727
G1 X220.969 Y147.834 E.06512
G1 X221.082 Y149.305 E.06341
G1 X221.08 Y150.729 E.06121
G1 X220.975 Y152.097 E.059
G1 X220.774 Y153.414 E.05728
G1 X220.424 Y154.941 E.06732
G1 X220.01 Y156.249 E.059
