; HEADER_BLOCK_START
; generated by OrcaSlicer 1.7.0 on 2023-10-01 at 12:36:14
; total layer number: 50
; HEADER_BLOCK_END

; THUMBNAIL_BLOCK_START
; THUMBNAIL_BLOCK_END

; external perimeters extrusion width = 0.40mm
; perimeters extrusion width = 0.40mm
; infill extrusion width = 0.50mm
; solid infill extrusion width = 0.40mm
; top infill extrusion width = 0.40mm
; first layer extrusion width = 0.50mm

; external perimeters extrusion width = 0.40mm
; perimeters extrusion width = 0.40mm
; infill extrusion width = 0.50mm
; solid infill extrusion width = 0.40mm
; top infill extrusion width = 0.40mm
; first layer extrusion width = 0.50mm

; EXECUTABLE_BLOCK_START
EXCLUDE_OBJECT_DEFINE NAME=U2C_Mounting_Universal.STL_id_0_copy_0 CENTER=186.087,150 POLYGON=[[173.722,110.335],[173.748,109.954],[173.763,109.857],[173.851,109.501],[173.888,109.394],[174.029,109.072],[174.09,108.96],[174.276,108.679],[174.365,108.567],[174.586,108.334],[174.704,108.228],[174.949,108.045],[175.097,107.953],[175.356,107.822],[175.531,107.751],[175.794,107.67],[175.994,107.627],[176.252,107.594],[176.472,107.585],[195.702,107.585],[195.921,107.594],[196.179,107.627],[196.379,107.67],[196.642,107.751],[196.817,107.822],[197.077,107.953],[197.224,108.045],[197.469,108.228],[197.588,108.334],[197.808,108.567],[197.897,108.679],[198.083,108.96],[198.145,109.072],[198.286,109.394],[198.322,109.501],[198.41,109.857],[198.425,109.954],[198.452,110.335],[198.452,189.665],[198.424,190.052],[198.41,190.143],[198.32,190.506],[198.286,190.606],[198.141,190.935],[198.083,191.04],[197.892,191.328],[197.808,191.433],[197.58,191.674],[197.469,191.772],[197.214,191.962],[197.077,192.047],[196.805,192.184],[196.642,192.249],[196.365,192.334],[196.179,192.373],[195.905,192.407],[195.702,192.415],[176.472,192.415],[176.268,192.407],[175.994,192.373],[175.808,192.334],[175.531,192.249],[175.368,192.184],[175.097,192.047],[174.959,191.962],[174.704,191.772],[174.594,191.674],[174.365,191.433],[174.282,191.328],[174.09,191.04],[174.033,190.935],[173.888,190.606],[173.853,190.506],[173.763,190.143],[173.749,190.052],[173.722,189.665],[173.722,110.335]]
EXCLUDE_OBJECT_DEFINE NAME=pcb_din_clip_x3.stl_id_1_copy_0 CENTER=160.135,148.173 POLYGON=[[151.549,158.465],[153.605,119.184],[153.697,117.421],[154.117,117.043],[160.708,117.387],[163.547,120.54],[168.722,128.822],[168.722,167.091],[168.545,170.47],[167.284,171.605],[157.468,179.303],[154.623,179.154],[154.056,178.523],[152.966,177.313],[151.549,158.465]]
M73 P0 R69
;TYPE:Custom
PRINT_START EXTRUDER=260 BED=110
G90
G21
M83 ; use relative distances for extrusion
; Filament gcode
M106 S0
;LAYER_CHANGE
;Z:0.25
;HEIGHT:0.25
;BEFORE_LAYER_CHANGE
;0.25
G92 E0

G1 E-.8 F1800
;AFTER_LAYER_CHANGE
;0.25
;_SET_FAN_SPEED_CHANGING_LAYER
SET_VELOCITY_LIMIT ACCEL=500 ACCEL_TO_DECEL=250
SET_VELOCITY_LIMIT SQUARE_CORNER_VELOCITY=9
G1 Z.25 F24000
G1 X151.034 Y117.099
G1 Z.25
G1 E.8 F1800
;TYPE:Skirt
;WIDTH:0.5
G1 X151.409 Y116.623 E.02606
G1 X152.521 Y115.712 E.06177
G1 X173.866 Y104.889 E1.02878
G1 X174.527 Y104.62 E.03069
G1 X175.607 Y104.36 E.04773
G1 X176.498 Y104.297 E.0384
G1 X195.778 Y104.299 E.82882
G1 X197.034 Y104.447 E.05437
G1 X198.01 Y104.756 E.04402
G1 X198.939 Y105.238 E.04497
G1 X199.772 Y105.875 E.04509
G1 X200.648 Y106.875 E.05714
G1 X201.162 Y107.763 E.04412
G1 X201.519 Y108.726 E.04412
G1 X201.73 Y110.062 E.05816
G1 X201.741 Y189.657 E3.42157
G1 X201.592 Y190.975 E.05702
G1 X201.401 Y191.66 E.03055
G1 X200.976 Y192.606 E.04461
G1 X200.461 Y193.382 E.04001
G1 X199.76 Y194.137 E.04429
G1 X198.9 Y194.786 E.04634
G1 X198.292 Y195.118 E.02973
G1 X197.634 Y195.384 E.03052
G1 X196.797 Y195.602 E.03721
G1 X195.674 Y195.703 E.04846
G1 X176.5 Y195.703 E.82425
G1 X175.165 Y195.559 E.05769
G1 X174.186 Y195.253 E.04409
G1 X173.233 Y194.761 E.04613
G1 X152.273 Y181.283 E1.07123
G1 X151.598 Y180.709 E.0381
G1 X150.536 Y179.53 E.06822
G1 X149.687 Y177.545 E.09276
G1 X148.266 Y158.272 E.83075
G1 X150.321 Y118.992 E1.69088
G1 X151.02 Y117.136 E.08524
G1 X151.384 Y117.375 F24000
G1 F1800
G1 X151.76 Y116.899 E.02606
G1 X152.723 Y116.11 E.05352
G1 X174.068 Y105.287 E1.02878
G1 X174.661 Y105.046 E.02753
G1 X175.663 Y104.803 E.04433
G1 X176.498 Y104.743 E.03596
G1 X195.765 Y104.745 E.82823
G1 X196.945 Y104.884 E.0511
G1 X197.848 Y105.172 E.04075
G1 X198.706 Y105.619 E.04157
G1 X199.476 Y106.209 E.04168
G1 X200.275 Y107.121 E.05212
G1 X200.753 Y107.941 E.04084
G1 X201.085 Y108.831 E.04084
G1 X201.285 Y110.093 E.05491
G1 X201.294 Y189.657 E3.42024
G1 X201.159 Y190.868 E.05238
G1 X200.979 Y191.515 E.02888
G1 X200.584 Y192.392 E.04135
G1 X200.112 Y193.103 E.03669
G1 X199.464 Y193.802 E.04099
G1 X198.671 Y194.403 E.04277
G1 X198.091 Y194.719 E.02838
G1 X196.709 Y195.164 E.06241
G1 X195.674 Y195.256 E.04468
G1 X176.5 Y195.256 E.82425
G1 X175.253 Y195.122 E.05391
G1 X174.347 Y194.837 E.04082
G1 X173.467 Y194.381 E.04259
G1 X152.514 Y180.907 E1.07087
G1 X151.929 Y180.41 E.033
G1 X150.867 Y179.231 E.06822
G1 X150.132 Y177.512 E.08036
G1 X148.711 Y158.296 E.82832
G1 X150.767 Y119.015 E1.69088
G1 X151.37 Y117.412 E.07361
G1 X151.735 Y117.651 F24000
G1 F1800
G1 X152.11 Y117.175 E.02606
G1 X152.925 Y116.508 E.04526
G1 X174.27 Y105.685 E1.02878
G1 X175.073 Y105.385 E.03685
G1 X176.498 Y105.19 E.06184
G1 X195.751 Y105.191 E.82764
G1 X196.856 Y105.321 E.04783
G1 X197.686 Y105.588 E.03749
G1 X198.473 Y106 E.03818
G1 X199.179 Y106.542 E.03827
G1 X199.746 Y107.155 E.03589
G1 X200.344 Y108.119 E.04878
G1 X200.651 Y108.937 E.03756
G1 X200.839 Y110.124 E.05166
G1 X200.848 Y189.657 E3.4189
G1 X200.726 Y190.76 E.04773
G1 X200.557 Y191.37 E.02721
G1 X200.192 Y192.178 E.03808
G1 X199.763 Y192.825 E.03337
G1 X199.168 Y193.468 E.0377
G1 X198.442 Y194.02 E.0392
G1 X197.889 Y194.321 E.02703
G1 X197.079 Y194.621 E.03714
G1 X196.445 Y194.755 E.02789
G1 X195.674 Y194.81 E.03322
G1 X176.5 Y194.81 E.82425
G1 X175.34 Y194.684 E.05012
G1 X174.508 Y194.42 E.03755
G1 X173.702 Y194.002 E.03904
G1 X152.756 Y180.532 E1.07052
M73 P0 R68
G1 X152.261 Y180.111 E.02791
G1 X151.199 Y178.932 E.06822
G1 X150.578 Y177.479 E.06796
G1 X149.157 Y158.319 E.82588
G1 X151.213 Y119.038 E1.69088
G1 X151.721 Y117.689 E.06199
; printing object U2C_Mounting_Universal.STL id:0 copy 0
G1 E-.8
EXCLUDE_OBJECT_START NAME=U2C_Mounting_Universal.STL_id_0_copy_0
G1 Z.45 F24000
G1 X177.66 Y186.59 Z.45
G1 Z.25
G1 E.8 F1800
;TYPE:Inner wall
;WIDTH:0.499999
G1 X177.44 Y186.5 E.01019
G1 X177.832 Y185.665 E.03968
G1 X178.379 Y183.808 E.0832
G1 X178.616 Y182 E.07841
G1 X179.149 Y169.231 E.54937
G1 X179.398 Y157.356 E.51057
G1 X179.417 Y156.389 E.04156
G1 X179.417 Y143.578 E.55073
G1 X179.149 Y130.769 E.55074
G1 X178.603 Y117.857 E.55555
G1 X178.431 Y116.584 E.05521
G1 X178.324 Y115.943 E.02796
G1 X177.737 Y114.099 E.0832
G1 X177.44 Y113.5 E.02874
G1 X177.731 Y113.397 E.01326
G1 X178.273 Y113.112 E.02632
G1 X178.412 Y113.4 E.01377
G1 X178.744 Y113.889 E.0254
G1 X179.388 Y114.765 E.04676
G1 X180.008 Y115.385 E.03769
G1 X180.497 Y115.84 E.0287
G1 X181.157 Y116.302 E.03463
G1 X181.776 Y116.706 E.03177
G1 X182.929 Y117.244 E.05471
G1 X183.185 Y117.337 E.01171
G1 X184.414 Y117.667 E.05471
G1 X184.683 Y117.714 E.01171
G1 X185.258 Y117.764 E.02483
G1 X186.223 Y117.825 E.04156
G1 X187.759 Y117.667 E.06638
G1 X188.988 Y117.337 E.05471
G1 X189.244 Y117.244 E.01171
G1 X190.398 Y116.706 E.05471
G1 X191.017 Y116.302 E.03177
G1 X191.885 Y115.665 E.0463
G1 X192.449 Y115.101 E.03429
G1 X192.96 Y114.557 E.0321
G1 X193.62 Y113.614 E.04946
G1 X193.889 Y113.143 E.02334
G1 X194.733 Y113.5 E.03939
G1 X194.342 Y114.335 E.03968
G1 X193.988 Y115.489 E.05185
G1 X193.795 Y116.192 E.03136
G1 X193.558 Y118 E.07841
G1 X193.023 Y130.802 E.55077
G1 X192.776 Y142.644 E.50917
G1 X192.756 Y143.611 E.04156
G1 X192.756 Y156.422 E.55073
G1 X193.024 Y169.231 E.55074
M73 P1 R68
G1 X193.57 Y182.143 E.55555
G1 X193.849 Y184.057 E.08316
G1 X194.342 Y185.665 E.07227
G1 X194.436 Y185.901 E.01096
G1 X194.737 Y186.508 E.0291
G1 X194.16 Y186.735 E.02666
G1 X193.711 Y187.021 E.0229
G1 X193.298 Y186.398 E.03214
G1 X192.478 Y185.468 E.05329
G1 X191.875 Y184.924 E.03491
G1 X191.051 Y184.316 E.04402
G1 X190.323 Y183.91 E.03586
G1 X189.716 Y183.597 E.02934
G1 X188.769 Y183.261 E.04317
G1 X189.055 Y182.725 E.02611
G1 X189.223 Y182.191 E.02406
G1 X189.295 Y181.636 E.02406
G1 X189.27 Y181.077 E.02406
G1 X189.148 Y180.531 E.02406
G1 X188.933 Y180.014 E.02406
G1 X188.632 Y179.542 E.02406
G1 X188.253 Y179.13 E.02406
G1 X187.809 Y178.79 E.02406
G1 X187.312 Y178.532 E.02406
G1 X186.61 Y178.329 E.03142
G1 X186.093 Y178.294 E.02225
G1 X185.722 Y178.32 E.016
G1 X185.231 Y178.413 E.02149
G1 X184.861 Y178.532 E.01667
G1 X184.365 Y178.79 E.02406
G1 X183.92 Y179.13 E.02406
G1 X183.542 Y179.542 E.02406
G1 X183.24 Y180.014 E.02406
G1 X183.025 Y180.531 E.02406
G1 X182.904 Y181.077 E.02406
G1 X182.878 Y181.636 E.02406
G1 X182.951 Y182.191 E.02406
G1 X183.119 Y182.725 E.02406
G1 X183.404 Y183.261 E.02612
G1 X182.215 Y183.706 E.05456
G1 X181.496 Y184.109 E.03546
G1 X180.879 Y184.481 E.03095
G1 X179.693 Y185.47 E.0664
G1 X178.76 Y186.543 E.0611
G1 X178.461 Y187.02 E.02421
G1 X178.008 Y186.732 E.02308
G1 X177.697 Y186.605 E.01445
G1 X177.505 Y187.003 F24000
G1 F1800
G1 X177.36 Y186.941 E.0068
G1 X176.782 Y186.823 E.02535
G1 X177.405 Y185.534 E.06153
G1 X177.727 Y184.482 E.0473
G1 X177.936 Y183.748 E.03278
G1 X178.17 Y181.981 E.07664
G1 X178.703 Y169.212 E.54937
G1 X178.971 Y156.389 E.55134
G1 X178.971 Y143.587 E.55033
G1 X178.723 Y131.747 E.50909
G1 X178.703 Y130.788 E.04124
G1 X178.161 Y117.917 E.55378
G1 X177.897 Y116.074 E.08003
G1 X177.338 Y114.297 E.08007
G1 X176.783 Y113.18 E.05361
G1 X176.873 Y113.172 E.00389
G1 X177.542 Y112.993 E.02979
G1 X177.988 Y112.766 E.02147
G1 X178.438 Y112.414 E.02458
G1 X178.803 Y113.186 E.03667
G1 X179.704 Y114.45 E.06672
G1 X180.753 Y115.475 E.06305
G1 X181.964 Y116.302 E.06305
G1 X183.118 Y116.84 E.05471
G1 X183.3 Y116.906 E.00836
G1 X184.53 Y117.236 E.05471
G1 X184.721 Y117.269 E.00836
G1 X185.297 Y117.32 E.02483
G1 X186.184 Y117.38 E.03822
G1 X187.643 Y117.236 E.06305
G1 X188.873 Y116.906 E.05471
G1 X189.056 Y116.84 E.00836
G1 X190.209 Y116.302 E.05471
G1 X190.76 Y115.937 E.02843
G1 X191.569 Y115.35 E.04296
G1 X192.594 Y114.301 E.06305
G1 X193.422 Y113.089 E.06305
G1 X193.736 Y112.415 E.03197
G1 X194.271 Y112.82 E.02883
G1 X194.814 Y113.059 E.0255
G1 X195.39 Y113.18 E.02532
G1 X194.768 Y114.466 E.06142
G1 X194.415 Y115.619 E.05185
G1 X194.237 Y116.252 E.02823
G1 X194.004 Y118.019 E.07664
G1 X193.469 Y130.811 E.55037
G1 X193.202 Y143.611 E.55033
G1 X193.202 Y155.286 E.50189
G1 X193.203 Y156.413 E.04845
G1 X193.469 Y169.189 E.54933
G1 X194.013 Y182.083 E.55479
G1 X194.276 Y183.926 E.08003
G1 X194.768 Y185.534 E.07227
G1 X194.836 Y185.703 E.00783
G1 X195.394 Y186.828 E.05397
G1 X194.894 Y186.922 E.02186
G1 X194.354 Y187.136 E.02498
G1 X193.936 Y187.409 E.02147
G1 X193.612 Y187.709 E.01896
G1 X192.963 Y186.693 E.0518
G1 X192.144 Y185.763 E.05329
G1 X191.605 Y185.279 E.03113
G1 X190.834 Y184.706 E.0413
G1 X189.567 Y184.017 E.06197
G1 X188.394 Y183.602 E.05348
G1 X187.983 Y183.509 E.01813
G1 X188.122 Y183.37 E.00846
G1 X188.431 Y182.966 E.02186
G1 X188.65 Y182.537 E.02072
G1 X188.791 Y182.076 E.02072
G1 X188.85 Y181.597 E.02072
G1 X188.825 Y181.116 E.02072
G1 X188.717 Y180.646 E.02072
G1 X188.529 Y180.202 E.02072
G1 X188.266 Y179.798 E.02072
G1 X187.938 Y179.446 E.02072
G1 X187.553 Y179.155 E.02072
G1 X186.941 Y178.87 E.02904
G1 X186.43 Y178.759 E.02244
G1 X185.805 Y178.758 E.02688
G1 X185.314 Y178.851 E.02149
G1 X184.789 Y179.058 E.02424
G1 X184.385 Y179.32 E.02072
G1 X184.032 Y179.649 E.02072
G1 X183.742 Y180.034 E.02072
G1 X183.523 Y180.463 E.02072
G1 X183.382 Y180.924 E.02072
G1 X183.323 Y181.403 E.02072
G1 X183.344 Y181.835 E.0186
G1 X183.457 Y182.354 E.02283
G1 X183.645 Y182.798 E.02072
G1 X183.907 Y183.202 E.02072
G1 X184.19 Y183.509 E.01796
G1 X183.813 Y183.59 E.0166
G1 X182.433 Y184.096 E.06315
G1 X181.16 Y184.828 E.06315
G1 X180.028 Y185.765 E.06315
G1 X179.074 Y186.877 E.06301
G1 X178.561 Y187.708 E.04198
G1 X178.238 Y187.409 E.01893
G1 X177.823 Y187.138 E.02129
G1 X177.542 Y187.019 E.01314
G1 X177.295 Y187.395 F24000
G1 F1800
G1 X176.949 Y187.293 E.01554
G1 X176.427 Y187.251 E.02251
G1 X175.981 Y187.317 E.01935
G1 X176.19 Y187.011 E.01593
G1 X176.978 Y185.403 E.07695
G1 X177.494 Y183.689 E.07695
G1 X177.724 Y181.962 E.07488
G1 X178.258 Y169.18 E.54997
G1 X178.525 Y156.395 E.54968
G1 X178.525 Y143.597 E.55018
G1 X178.277 Y131.756 E.50909
G1 X178.257 Y130.806 E.04084
G1 X177.718 Y117.976 E.55202
G1 X177.471 Y116.204 E.07691
G1 X176.938 Y114.495 E.07695
G1 X176.288 Y113.186 E.06286
G1 X175.999 Y112.708 E.02401
G1 X176.413 Y112.754 E.01793
G1 X176.949 Y112.707 E.02312
G1 X177.506 Y112.517 E.02529
G1 X177.982 Y112.226 E.02399
G1 X178.287 Y111.935 E.01813
G1 X178.557 Y111.561 E.01982
G1 X178.619 Y111.749 E.00852
G1 X179.175 Y112.934 E.05627
G1 X179.474 Y113.375 E.0229
G1 X180.02 Y114.134 E.04018
G1 X181.009 Y115.109 E.05971
G1 X182.153 Y115.897 E.05971
G1 X183.416 Y116.475 E.05971
G1 X184.76 Y116.825 E.05971
G1 X186.145 Y116.936 E.05971
G1 X187.528 Y116.805 E.05971
G1 X188.867 Y116.435 E.05971
G1 X190.021 Y115.897 E.05471
G1 X191.254 Y115.034 E.06471
G1 X192.229 Y114.045 E.05971
G1 X192.696 Y113.377 E.03502
G1 X193.017 Y112.901 E.02469
G1 X193.616 Y111.561 E.0631
G1 X193.811 Y111.845 E.01482
G1 X194.192 Y112.226 E.02312
G1 X194.666 Y112.517 E.02395
G1 X195.224 Y112.707 E.02533
G1 X195.643 Y112.754 E.01813
G1 X196.179 Y112.702 E.02312
G1 X195.983 Y112.99 E.01495
G1 X195.195 Y114.597 E.07695
G1 X194.679 Y116.311 E.07695
G1 X194.45 Y118.038 E.07488
G1 X193.916 Y130.82 E.54997
G1 X193.649 Y143.605 E.54968
G1 X193.649 Y156.403 E.55018
G1 X193.916 Y169.18 E.54933
G1 X194.455 Y182.024 E.55262
G1 X194.703 Y183.796 E.07691
G1 X195.195 Y185.403 E.07227
G1 X195.91 Y186.864 E.06994
G1 X196.175 Y187.292 E.02161
G1 X196.04 Y187.271 E.00588
G1 X195.498 Y187.262 E.0233
G1 X194.978 Y187.361 E.02275
G1 X194.543 Y187.541 E.02023
G1 X194.192 Y187.775 E.01813
G1 X193.811 Y188.155 E.02312
G1 X193.547 Y188.573 E.02126
G1 X193.366 Y188.159 E.01941
G1 X192.628 Y186.988 E.05949
G1 X191.75 Y185.999 E.05688
G1 X191.334 Y185.634 E.02376
G1 X190.616 Y185.096 E.03858
G1 X189.418 Y184.438 E.05875
G1 X188.101 Y183.982 E.0599
G1 X186.951 Y183.785 E.05016
G1 X186.544 Y183.765 E.01751
;WIDTH:0.487865
G1 X186.721 Y183.721 E.00762
;WIDTH:0.499999
G1 X187.196 Y183.537 E.02186
G1 X187.533 Y183.314 E.01738
G1 X187.807 Y183.054 E.01623
G1 X188.066 Y182.71 E.01852
G1 X188.246 Y182.348 E.01738
G1 X188.36 Y181.96 E.01738
G1 X188.406 Y181.558 E.01738
G1 X188.38 Y181.155 E.01738
G1 X188.286 Y180.762 E.01738
G1 X188.124 Y180.391 E.01738
G1 X187.901 Y180.054 E.01738
G1 X187.622 Y179.761 E.01738
G1 X187.297 Y179.521 E.01738
G1 X186.935 Y179.341 E.01738
G1 X186.407 Y179.204 E.02341
G1 X185.888 Y179.197 E.02232
G1 X185.397 Y179.29 E.02149
G1 X184.978 Y179.463 E.01949
G1 X184.641 Y179.686 E.01738
G1 X184.348 Y179.965 E.01738
G1 X184.108 Y180.29 E.01738
G1 X183.928 Y180.652 E.01738
G1 X183.813 Y181.04 E.01738
G1 X183.768 Y181.442 E.01738
G1 X183.789 Y181.796 E.01526
G1 X183.888 Y182.238 E.01949
G1 X184.049 Y182.609 E.01738
G1 X184.273 Y182.946 E.01738
G1 X184.551 Y183.239 E.01738
G1 X184.877 Y183.479 E.01738
G1 X185.239 Y183.659 E.01738
G1 X185.629 Y183.765 E.01738
G1 X185.333 Y183.765 E.0127
G1 X183.962 Y184.011 E.0599
G1 X182.652 Y184.485 E.0599
G1 X181.441 Y185.174 E.0599
G1 X180.364 Y186.059 E.0599
G1 X179.638 Y186.886 E.0473
G1 X179.454 Y187.111 E.01252
G1 X178.91 Y187.993 E.04452
G1 X178.627 Y188.573 E.02775
G1 X178.456 Y188.289 E.01422
G1 X178.071 Y187.85 E.02513
G1 X177.732 Y187.599 E.01813
G1 X177.354 Y187.412 E.01813
G1 X177.334 Y187.406 E.00089
G1 X177.111 Y187.801 F24000
;TYPE:Outer wall
G1 F1800
G1 X177.165 Y187.816 E.0024
G1 X177.476 Y187.965 E.01479
G1 X177.756 Y188.165 E.01479
G1 X178.091 Y188.545 E.02179
G1 X178.334 Y189.008 E.02246
G1 X178.408 Y189.342 E.01472
;WIDTH:0.47787
G1 X178.387 Y189.663 E.01314
;WIDTH:0.4345
G1 X178.365 Y189.984 E.01179
