; HEADER_BLOCK_START
; generated by OrcaSlicer 1.7.0 on 2023-10-01 at 11:02:48
; total layer number: 210
; HEADER_BLOCK_END

; THUMBNAIL_BLOCK_START
; THUMBNAIL_BLOCK_END

; external perimeters extrusion width = 0.40mm
; perimeters extrusion width = 0.40mm
; infill extrusion width = 0.50mm
; solid infill extrusion width = 0.40mm
; top infill extrusion width = 0.40mm
; first layer extrusion width = 0.50mm

; EXECUTABLE_BLOCK_START
EXCLUDE_OBJECT_DEFINE NAME=z_motor_mount_b_x2.stl_id_0_copy_0 CENTER=175,150 POLYGON=[[149.5,135.15],[149.508,135.063],[149.53,134.979],[149.567,134.9],[149.617,134.829],[149.679,134.767],[149.75,134.717],[149.829,134.68],[149.913,134.658],[150,134.65],[199,134.65],[199.033,134.651],[199.065,134.654],[199.087,134.658],[199.098,134.66],[199.129,134.667],[199.171,134.68],[199.191,134.688],[199.25,134.717],[199.304,134.753],[199.321,134.767],[199.354,134.796],[199.383,134.829],[199.397,134.846],[199.433,134.9],[199.462,134.959],[199.47,134.979],[199.483,135.021],[199.49,135.052],[199.492,135.063],[199.496,135.085],[199.499,135.117],[200.5,153.15],[200.5,157.55],[199.5,165.35],[192.5,165.35],[192.344,165.338],[192.206,165.305],[192.191,165.301],[192.046,165.241],[150.046,142.541],[149.912,142.459],[149.793,142.357],[149.691,142.238],[149.609,142.104],[149.549,141.959],[149.512,141.806],[149.5,141.65],[149.5,135.15]]
M73 P0 R62
;TYPE:Custom
PRINT_START EXTRUDER=260 BED=110
G90
G21
M83 ; use relative distances for extrusion
; Filament gcode
M106 S0
;LAYER_CHANGE
;Z:0.25
;HEIGHT:0.25
;BEFORE_LAYER_CHANGE
;0.25
G92 E0

G1 E-.8 F1800
;AFTER_LAYER_CHANGE
;0.25
;_SET_FAN_SPEED_CHANGING_LAYER
SET_VELOCITY_LIMIT ACCEL=500 ACCEL_TO_DECEL=250
SET_VELOCITY_LIMIT SQUARE_CORNER_VELOCITY=9
G1 Z.25 F24000
G1 X149.916 Y132.506
G1 Z.25
G1 E.8 F1800
;TYPE:Skirt
;WIDTH:0.5
G1 X150.516 Y132.013 E.0334
G1 X151.419 Y131.558 E.04346
G1 X152.55 Y131.361 E.04934
G1 X199.096 Y131.361 E2.00091
G1 X200.018 Y131.475 E.0399
G1 X200.706 Y131.723 E.03145
G1 X201.478 Y132.219 E.03945
G1 X201.863 Y132.594 E.02311
G1 X202.327 Y133.253 E.03462
G1 X202.656 Y134.063 E.0376
G1 X202.789 Y135.054 E.04296
G1 X202.789 Y163.7 E1.23144
G1 X202.395 Y165.274 E.06973
G1 X201.306 Y166.476 E.06973
G1 X199.45 Y167.039 E.08338
G1 X192.31 Y167.034 E.30691
G1 X191.347 Y166.87 E.04199
G1 X190.61 Y166.572 E.03419
G1 X151.007 Y145.319 E1.9321
G1 X150.289 Y144.81 E.03783
G1 X149.536 Y143.971 E.04843
G1 X149.131 Y143.229 E.03634
G1 X148.877 Y142.374 E.03835
G1 X148.811 Y141.65 E.03125
G1 X148.811 Y135.15 E.27942
G1 X148.899 Y134.352 E.03451
G1 X149.103 Y133.716 E.0287
G1 X149.446 Y133.078 E.03115
G1 X149.891 Y132.537 E.03011
G1 X150.228 Y132.825 F24000
G1 F1800
G1 X150.769 Y132.38 E.03012
G1 X151.57 Y131.978 E.03853
G1 X152.55 Y131.807 E.04275
G1 X199.096 Y131.807 E2.00091
G1 X199.905 Y131.907 E.03502
G1 X200.511 Y132.124 E.02765
G1 X201.187 Y132.558 E.03457
G1 X201.528 Y132.889 E.0204
G1 X202.025 Y133.637 E.03863
G1 X202.243 Y134.246 E.02779
G1 X202.343 Y135.054 E.03498
G1 X202.343 Y163.7 E1.23144
G1 X201.95 Y165.156 E.06483
G1 X200.877 Y166.216 E.06483
G1 X199.45 Y166.593 E.06345
G1 X192.336 Y166.588 E.30582
G1 X191.48 Y166.444 E.03729
G1 X190.821 Y166.179 E.03056
G1 X151.226 Y144.931 E1.93165
G1 X150.575 Y144.467 E.03435
G1 X149.907 Y143.723 E.043
G1 X149.545 Y143.06 E.03247
G1 X149.317 Y142.298 E.03417
G1 X149.257 Y141.65 E.02799
G1 X149.257 Y135.15 E.27942
G1 X149.335 Y134.446 E.03045
G1 X149.516 Y133.884 E.02538
G1 X149.814 Y133.331 E.02699
G1 X150.203 Y132.856 E.02639
G1 X150.54 Y133.144 F24000
G1 F1800
G1 X151.022 Y132.748 E.02683
G1 X151.722 Y132.398 E.03361
G1 X152.55 Y132.254 E.03615
G1 X199.096 Y132.254 E2.00091
G1 X199.792 Y132.339 E.03014
G1 X200.315 Y132.525 E.02384
G1 X200.897 Y132.897 E.02968
G1 X201.192 Y133.183 E.01768
G1 X201.624 Y133.833 E.03355
G1 X201.811 Y134.359 E.02398
G1 X201.896 Y135.054 E.03009
G1 X201.896 Y163.7 E1.23144
G1 X201.505 Y165.028 E.05952
G1 X200.455 Y165.931 E.05952
G1 X199.45 Y166.146 E.04417
G1 X192.361 Y166.142 E.30473
G1 X191.613 Y166.018 E.0326
G1 X191.031 Y165.785 E.02693
G1 X151.446 Y144.542 E1.93121
G1 X150.862 Y144.125 E.03087
G1 X150.278 Y143.474 E.03757
G1 X149.958 Y142.891 E.0286
G1 X149.757 Y142.223 E.02999
G1 X149.704 Y135.15 E.30406
G1 X149.764 Y134.573 E.02494
G1 X149.93 Y134.052 E.02352
G1 X150.182 Y133.584 E.02283
G1 X150.515 Y133.175 E.02268
; printing object z_motor_mount_b_x2.stl id:0 copy 0
G1 E-.8
EXCLUDE_OBJECT_START NAME=z_motor_mount_b_x2.stl_id_0_copy_0
G1 Z.45 F24000
G1 X197.636 Y136.514 Z.45
G1 Z.25
G1 E.8 F1800
;TYPE:Inner wall
;WIDTH:0.499999
G1 X197.636 Y161.885 E1.09063
G1 X193.364 Y161.882 E.18364
G1 X193.364 Y149.65 E.52586
G1 X193.279 Y148.442 E.05204
G1 X193.058 Y147.351 E.04784
G1 X192.703 Y146.297 E.04784
G1 X192.218 Y145.295 E.04784
G1 X191.611 Y144.362 E.04784
G1 X190.853 Y143.476 E.05014
G1 X190.073 Y142.76 E.04552
G1 X189.165 Y142.116 E.04784
G1 X188.184 Y141.591 E.04784
G1 X187.145 Y141.192 E.04784
G1 X186.064 Y140.928 E.04784
G1 X185.008 Y140.801 E.04574
G1 X184.5 Y140.786 E.02181
G1 X153.969 Y140.786 E1.31248
G1 X153.965 Y136.514 E.18364
G1 X197.596 Y136.514 E1.87557
G1 X198.082 Y136.068 F24000
G1 F1800
G1 X198.082 Y162.332 E1.12902
G1 X192.918 Y162.329 E.22201
G1 X192.918 Y149.65 E.54503
G1 X192.84 Y148.526 E.04843
G1 X192.634 Y147.489 E.04543
G1 X192.299 Y146.487 E.04543
G1 X191.841 Y145.534 E.04543
G1 X191.267 Y144.647 E.04543
G1 X190.547 Y143.801 E.04773
G1 X189.81 Y143.121 E.04312
G1 X188.95 Y142.507 E.04543
G1 X188.02 Y142.006 E.04543
G1 X187.034 Y141.625 E.04543
G1 X186.008 Y141.37 E.04543
G1 X185.098 Y141.255 E.03942
G1 X184.5 Y141.232 E.02572
G1 X153.523 Y141.232 E1.33165
G1 X153.518 Y136.068 E.22201
G1 X198.042 Y136.068 E1.91396
G1 X198.529 Y135.621 F24000
G1 F1800
G1 X198.529 Y162.778 E1.1674
G1 X192.559 Y162.775 E.25661
G1 X192.471 Y162.745 E.00399
G1 X192.471 Y149.65 E.56293
G1 X192.402 Y148.609 E.04482
G1 X192.209 Y147.627 E.04303
G1 X191.895 Y146.677 E.04303
G1 X191.464 Y145.774 E.04303
G1 X190.923 Y144.931 E.04303
G1 X190.242 Y144.127 E.04532
G1 X189.548 Y143.482 E.04071
G1 X188.735 Y142.898 E.04303
G1 X187.855 Y142.421 E.04303
G1 X186.923 Y142.057 E.04303
G1 X185.952 Y141.813 E.04303
G1 X185.042 Y141.698 E.03942
G1 X184.5 Y141.679 E.02331
G1 X153.127 Y141.679 E1.34866
G1 X153.077 Y141.636 E.00285
M73 P1 R62
G1 X153.072 Y135.621 E.25853
G1 X198.489 Y135.621 E1.95235
G1 X198.928 Y135.188 F24000
;TYPE:Outer wall
G1 F1800
G1 X198.975 Y135.299 E.00521
G1 X198.975 Y163.225 E1.20046
G1 X192.559 Y163.221 E.27581
G1 X192.237 Y163.141 E.01425
G1 X192.025 Y162.932 E.0128
G1 X192.025 Y149.65 E.57096
G1 X191.963 Y148.693 E.04121
G1 X191.785 Y147.765 E.04062
G1 X191.491 Y146.867 E.04062
G1 X191.087 Y146.013 E.04062
G1 X190.579 Y145.216 E.04062
G1 X189.936 Y144.452 E.04292
G1 X189.286 Y143.843 E.03831
G1 X188.52 Y143.289 E.04062
G1 X187.691 Y142.836 E.04062
G1 X186.812 Y142.489 E.04062
G1 X185.896 Y142.256 E.04062
G1 X184.986 Y142.141 E.03942
G1 X184.5 Y142.125 E.02091
G1 X152.913 Y142.125 E1.35785
G1 X152.733 Y141.956 E.01061
G1 X152.63 Y141.699 E.0119
G1 X152.625 Y135.188 E.27992
G1 X152.629 Y135.175 E.00057
G1 X198.84 Y135.175 E1.98648
G1 X198.888 Y135.182 E.00208
G1 E-.8
G1 Z.45 F24000
G1 X196.617 Y136.626 Z.45
G1 Z.25
G1 E.8 F1800
;TYPE:Bottom surface
;WIDTH:0.50226
G1 F3600
G1 X197.324 Y137.332 E.04272
G1 X197.324 Y137.966 E.02714
G1 X196.184 Y136.826 E.06895
G1 X195.549 Y136.826 E.02714
G1 X197.324 Y138.601 E.10732
G1 X197.324 Y139.235 E.02714
G1 X194.915 Y136.826 E.1457
G1 X194.28 Y136.826 E.02714
G1 X197.324 Y139.87 E.18408
G1 X197.324 Y140.504 E.02714
G1 X193.646 Y136.826 E.22245
G1 X193.012 Y136.826 E.02714
G1 X197.324 Y141.138 E.26083
G1 X197.324 Y141.773 E.02714
G1 X192.377 Y136.826 E.29921
G1 X191.743 Y136.826 E.02714
G1 X197.324 Y142.407 E.33758
G1 X197.324 Y143.042 E.02714
G1 X191.108 Y136.826 E.37596
G1 X190.474 Y136.826 E.02714
G1 X197.324 Y143.676 E.41434
G1 X197.324 Y144.311 E.02714
G1 X189.839 Y136.826 E.45272
G1 X189.205 Y136.826 E.02714
G1 X197.324 Y144.945 E.49109
G1 X197.324 Y145.579 E.02714
G1 X188.571 Y136.826 E.52947
G1 X187.936 Y136.826 E.02714
G1 X197.324 Y146.214 E.56785
G1 X197.324 Y146.848 E.02714
G1 X187.302 Y136.826 E.60622
G1 X186.667 Y136.826 E.02714
G1 X197.324 Y147.483 E.6446
G1 X197.324 Y148.117 E.02714
G1 X186.033 Y136.826 E.68298
G1 X185.398 Y136.826 E.02714
G1 X197.324 Y148.752 E.72135
G1 X197.324 Y149.386 E.02714
G1 X184.764 Y136.826 E.75973
G1 X184.13 Y136.826 E.02714
G1 X188.937 Y141.634 E.2908
G1 X189.32 Y141.845 E.0187
G1 X190.26 Y142.51 E.04925
G1 X191.109 Y143.288 E.04928
G1 X191.855 Y144.167 E.04928
G1 X192.484 Y145.132 E.04928
G1 X192.53 Y145.227 E.00455
G1 X197.324 Y150.02 E.28993
G1 X197.324 Y150.655 E.02714
G1 X193.081 Y146.413 E.25661
G1 X193.368 Y147.334 E.04127
G1 X197.324 Y151.289 E.23926
G1 X197.324 Y151.924 E.02714
G1 X193.529 Y148.129 E.22954
G1 X193.615 Y148.612 E.02099
G1 X193.63 Y148.865 E.01081
G1 X197.324 Y152.558 E.22343
G1 X197.324 Y153.193 E.02714
G1 X193.67 Y149.539 E.221
G1 X193.676 Y150.18 E.02741
G1 X197.324 Y153.827 E.22061
G1 X197.324 Y154.461 E.02714
G1 X193.676 Y150.814 E.22061
G1 X193.676 Y151.449 E.02714
G1 X197.324 Y155.096 E.22061
G1 X197.324 Y155.73 E.02714
G1 X193.676 Y152.083 E.22061
G1 X193.676 Y152.718 E.02714
G1 X197.324 Y156.365 E.22061
G1 X197.324 Y156.999 E.02714
G1 X193.676 Y153.352 E.22061
G1 X193.676 Y153.987 E.02714
G1 X197.324 Y157.634 E.22061
G1 X197.324 Y158.268 E.02714
G1 X193.676 Y154.621 E.22061
G1 X193.676 Y155.255 E.02714
G1 X197.324 Y158.902 E.22061
G1 X197.324 Y159.537 E.02714
G1 X193.676 Y155.89 E.22061
G1 X193.676 Y156.524 E.02714
G1 X197.324 Y160.171 E.22061
M73 P1 R61
G1 X197.324 Y160.806 E.02714
G1 X193.676 Y157.159 E.22061
G1 X193.676 Y157.793 E.02714
G1 X197.324 Y161.44 E.22061
G1 X197.324 Y161.572 E.00565
G1 X196.821 Y161.572 E.0215
G1 X193.676 Y158.428 E.19021
G1 X193.676 Y159.062 E.02714
G1 X196.186 Y161.572 E.15181
G1 X195.551 Y161.571 E.02715
G1 X193.676 Y159.696 E.11341
G1 X193.676 Y160.331 E.02714
G1 X194.917 Y161.571 E.07501
G1 X194.282 Y161.571 E.02715
G1 X193.476 Y160.764 E.04876
G1 E-.8 F1800
G1 Z.45 F24000
G1 X188.128 Y141.459 Z.45
G1 Z.25
G1 E.8 F1800
G1 F3600
G1 X183.495 Y136.826 E.28023
G1 X182.861 Y136.826 E.02714
G1 X186.83 Y140.795 E.24008
G1 X186.33 Y140.661 E.02213
G1 X186.017 Y140.617 E.01353
G1 X182.226 Y136.826 E.22929
G1 X181.592 Y136.826 E.02714
G1 X185.28 Y140.515 E.2231
G1 X184.607 Y140.477 E.02881
G1 X180.957 Y136.826 E.22079
G1 X180.323 Y136.826 E.02714
G1 X183.971 Y140.474 E.22066
G1 X183.336 Y140.474 E.02714
G1 X179.689 Y136.826 E.22066
G1 X179.054 Y136.826 E.02714
G1 X182.702 Y140.474 E.22066
G1 X182.068 Y140.474 E.02714
G1 X178.42 Y136.826 E.22066
G1 X177.785 Y136.826 E.02714
G1 X181.433 Y140.474 E.22066
G1 X180.799 Y140.474 E.02714
G1 X177.151 Y136.826 E.22066
G1 X176.516 Y136.826 E.02714
G1 X180.164 Y140.474 E.22066
G1 X179.53 Y140.474 E.02714
G1 X175.882 Y136.826 E.22065
G1 X175.248 Y136.826 E.02714
G1 X178.895 Y140.474 E.22065
G1 X178.261 Y140.474 E.02714
G1 X174.613 Y136.826 E.22065
G1 X173.979 Y136.826 E.02714
G1 X177.626 Y140.474 E.22065
G1 X176.992 Y140.474 E.02714
G1 X173.344 Y136.826 E.22065
G1 X172.71 Y136.826 E.02714
G1 X176.357 Y140.474 E.22065
G1 X175.723 Y140.474 E.02714
G1 X172.075 Y136.826 E.22065
G1 X171.441 Y136.826 E.02714
G1 X175.089 Y140.474 E.22065
G1 X174.454 Y140.474 E.02714
G1 X170.807 Y136.826 E.22065
G1 X170.172 Y136.826 E.02714
G1 X173.82 Y140.474 E.22064
G1 X173.185 Y140.474 E.02714
G1 X169.538 Y136.826 E.22064
G1 X168.903 Y136.826 E.02714
G1 X172.551 Y140.474 E.22064
G1 X171.916 Y140.474 E.02714
G1 X168.269 Y136.826 E.22064
G1 X167.634 Y136.826 E.02714
G1 X171.282 Y140.474 E.22064
G1 X170.647 Y140.474 E.02714
G1 X167 Y136.826 E.22064
G1 X166.366 Y136.826 E.02714
G1 X170.013 Y140.474 E.22064
G1 X169.379 Y140.474 E.02714
G1 X165.731 Y136.826 E.22064
G1 X165.097 Y136.826 E.02714
G1 X168.744 Y140.474 E.22064
G1 X168.11 Y140.474 E.02714
G1 X164.462 Y136.826 E.22063
G1 X163.828 Y136.826 E.02714
G1 X167.475 Y140.474 E.22063
G1 X166.841 Y140.474 E.02714
G1 X163.193 Y136.826 E.22063
G1 X162.559 Y136.826 E.02714
G1 X166.206 Y140.474 E.22063
G1 X165.572 Y140.474 E.02714
G1 X161.924 Y136.826 E.22063
G1 X161.29 Y136.826 E.02714
G1 X164.937 Y140.474 E.22063
G1 X164.303 Y140.474 E.02714
G1 X160.656 Y136.826 E.22063
G1 X160.021 Y136.826 E.02714
G1 X163.669 Y140.474 E.22063
G1 X163.034 Y140.474 E.02714
G1 X159.387 Y136.826 E.22063
G1 X158.752 Y136.826 E.02714
G1 X162.4 Y140.474 E.22062
G1 X161.765 Y140.474 E.02714
G1 X158.118 Y136.826 E.22062
G1 X157.483 Y136.826 E.02714
G1 X161.131 Y140.474 E.22062
G1 X160.496 Y140.474 E.02714
G1 X156.849 Y136.826 E.22062
G1 X156.215 Y136.826 E.02714
G1 X159.862 Y140.474 E.22062
G1 X159.227 Y140.474 E.02714
G1 X155.58 Y136.826 E.22062
G1 X154.946 Y136.826 E.02714
G1 X158.593 Y140.474 E.22062
G1 X157.958 Y140.474 E.02714
G1 X154.311 Y136.826 E.22062
G1 X154.278 Y136.826 E.00143
G1 X154.278 Y137.428 E.02573
G1 X157.324 Y140.474 E.18424
G1 X156.69 Y140.474 E.02714
G1 X154.279 Y138.063 E.14583
G1 X154.279 Y138.698 E.02716
G1 X156.055 Y140.474 E.10742
G1 X155.421 Y140.474 E.02714
G1 X154.28 Y139.333 E.06901
G1 X154.28 Y139.968 E.02716
G1 X154.987 Y140.674 E.04275
; stop printing object z_motor_mount_b_x2.stl id:0 copy 0
;LAYER_CHANGE
;Z:0.45
;HEIGHT:0.2
;BEFORE_LAYER_CHANGE
;0.45
G92 E0

G1 E-.8 F1800
EXCLUDE_OBJECT_END NAME=z_motor_mount_b_x2.stl_id_0_copy_0
;AFTER_LAYER_CHANGE
;0.45
;_SET_FAN_SPEED_CHANGING_LAYER
SET_VELOCITY_LIMIT ACCEL=2000 ACCEL_TO_DECEL=1000
M104 S255 ; set nozzle temperature
M140 S110 ; set bed temperature
SET_VELOCITY_LIMIT ACCEL=5000 ACCEL_TO_DECEL=2500
SET_VELOCITY_LIMIT SQUARE_CORNER_VELOCITY=12
G1 Z.45 F24000
G1 X152.162 Y145.939 Z.45
G1 E.8 F1800
SET_VELOCITY_LIMIT ACCEL=2000 ACCEL_TO_DECEL=1000
SET_VELOCITY_LIMIT SQUARE_CORNER_VELOCITY=9
;TYPE:Skirt
;WIDTH:0.5
G1 F3600
G1 X151.007 Y145.319 E.04617
G1 X150.289 Y144.81 E.03099
G1 X149.536 Y143.971 E.03968
G1 X149.131 Y143.229 E.02977
G1 X148.877 Y142.374 E.03142
G1 X148.811 Y141.65 E.0256
G1 X148.811 Y135.15 E.22891
G1 X148.899 Y134.352 E.02827
G1 X149.103 Y133.716 E.02351
G1 X149.446 Y133.078 E.02552
G1 X149.916 Y132.506 E.02607
G1 X150.516 Y132.013 E.02736
G1 X151.419 Y131.558 E.0356
G1 X152.55 Y131.361 E.04042
G1 X199.096 Y131.361 E1.63921
M73 P2 R61
G1 X200.018 Y131.475 E.03269
G1 X200.706 Y131.723 E.02576
G1 X201.478 Y132.219 E.03232
G1 X201.863 Y132.594 E.01893
G1 X202.327 Y133.253 E.02836
G1 X202.656 Y134.063 E.03081
G1 X202.789 Y135.054 E.03519
G1 X202.789 Y163.7 E1.00883
G1 X202.395 Y165.274 E.05713
G1 X201.306 Y166.476 E.05713
G1 X199.45 Y167.039 E.06831
G1 X192.31 Y167.034 E.25143
G1 X191.347 Y166.87 E.0344
G1 X190.61 Y166.572 E.02801
G1 X152.197 Y145.958 E1.53526
SET_VELOCITY_LIMIT ACCEL=5000 ACCEL_TO_DECEL=2500
SET_VELOCITY_LIMIT SQUARE_CORNER_VELOCITY=12
G1 X152.408 Y145.565 F24000
SET_VELOCITY_LIMIT ACCEL=2000 ACCEL_TO_DECEL=1000
SET_VELOCITY_LIMIT SQUARE_CORNER_VELOCITY=9
G1 F3600
G1 X151.226 Y144.931 E.04723
G1 X150.575 Y144.467 E.02814
G1 X149.907 Y143.723 E.03523
G1 X149.545 Y143.06 E.0266
G1 X149.317 Y142.298 E.02799
G1 X149.257 Y141.65 E.02293
G1 X149.257 Y135.15 E.22891
G1 X149.335 Y134.446 E.02495
G1 X149.516 Y133.884 E.02079
G1 X149.814 Y133.331 E.02211
G1 X150.228 Y132.825 E.02303
G1 X150.769 Y132.38 E.02467
G1 X151.57 Y131.978 E.03157
G1 X152.55 Y131.807 E.03502
G1 X199.096 Y131.807 E1.63921
G1 X199.905 Y131.907 E.02869
G1 X200.511 Y132.124 E.02265
G1 X201.187 Y132.558 E.02832
G1 X201.528 Y132.889 E.01671
G1 X202.025 Y133.637 E.03165
G1 X202.243 Y134.246 E.02277
G1 X202.343 Y135.054 E.02865
G1 X202.343 Y163.7 E1.00883
G1 X201.95 Y165.156 E.05311
G1 X200.877 Y166.216 E.05311
G1 X199.45 Y166.593 E.05198
G1 X192.336 Y166.588 E.25054
G1 X191.48 Y166.444 E.03055
G1 X190.821 Y166.179 E.02504
G1 X152.443 Y145.584 E1.53383
SET_VELOCITY_LIMIT ACCEL=5000 ACCEL_TO_DECEL=2500
SET_VELOCITY_LIMIT SQUARE_CORNER_VELOCITY=12
G1 X152.654 Y145.191 F24000
SET_VELOCITY_LIMIT ACCEL=2000 ACCEL_TO_DECEL=1000
SET_VELOCITY_LIMIT SQUARE_CORNER_VELOCITY=9
G1 F3600
